omarcavazosgzz/Robotics-Control-Lab-4.1/simulation_code-1/simulation_code/logs/mujoco_commands.csv
t,shoulder_pan_cmd,shoulder_lift_cmd,elbow_flex_cmd,wrist_flex_cmd,wrist_roll_cmd,gripper_cmd
0.0,-0.07679999999991757,-1.610000000000654,1.5699999999993148,0.9620000000002584,0.0,0.0
0.002,-0.07672319999991765,-1.6083900000006535,1.5684299999993154,0.9610380000002582,0.0,0.0
0.004,-0.07664639999991774,-1.6067800000006525,1.5668599999993162,0.960076000000258,0.0,0.0
0.006,-0.07656959999991783,-1.605170000000652,1.5652899999993168,0.9591140000002576,0.0,0.0
0.008,-0.0764927999999179,-1.6035600000006511,1.5637199999993177,0.9581520000002574,0.0,0.0
0.01,-0.07641599999991798,-1.6019500000006506,1.5621499999993183,0.9571900000002571,0.0,0.0
0.012,-0.07633919999991806,-1.6003400000006498,1.5605799999993188,0.956228000000257,0.0,0.0
0.014,-0.07626239999991814,-1.5987300000006495,1.5590099999993197,0.9552660000002566,0.0,0.0
0.016,-0.07618559999991824,-1.5971200000006485,1.5574399999993205,0.9543040000002564,0.0,0.0
0.018000000000000002,-0.07610879999991832,-1.595510000000648,1.555869999999321,0.953342000000256,0.0,0.0
0.020000000000000004,-0.07603199999991841,-1.5939000000006474,1.5542999999993217,0.9523800000002558,0.0,0.0
0.022000000000000006,-0.07595519999991848,-1.5922900000006466,1.5527299999993225,0.9514180000002556,0.0,0.0
0.024000000000000007,-0.07587839999991856,-1.590680000000646,1.551159999999323,0.9504560000002553,0.0,0.0
0.02600000000000001,-0.07580159999991865,-1.5890700000006455,1.5495899999993237,0.9494940000002552,0.0,0.0
0.02800000000000001,-0.07572479999991873,-1.5874600000006447,1.5480199999993247,0.9485320000002548,0.0,0.0
0.030000000000000013,-0.07564799999991881,-1.585850000000644,1.546449999999325,0.9475700000002545,0.0,0.0
0.032000000000000015,-0.07557119999991889,-1.5842400000006434,1.5448799999993257,0.9466080000002542,0.0,0.0
0.034000000000000016,-0.07549439999991897,-1.5826300000006426,1.5433099999993267,0.945646000000254,0.0,0.0
0.03600000000000002,-0.07541759999991907,-1.581020000000642,1.541739999999327,0.9446840000002538,0.0,0.0
0.03800000000000002,-0.07534079999991913,-1.5794100000006415,1.540169999999328,0.9437220000002535,0.0,0.0
0.04000000000000002,-0.07526399999991921,-1.577800000000641,1.5385999999993287,0.9427600000002534,0.0,0.0
0.04200000000000002,-0.0751871999999193,-1.5761900000006401,1.537029999999329,0.9417980000002529,0.0,0.0
0.044000000000000025,-0.07511039999991939,-1.5745800000006394,1.53545999999933,0.9408360000002527,0.0,0.0
0.04600000000000003,-0.07503359999991947,-1.5729700000006388,1.5338899999993305,0.9398740000002525,0.0,0.0
0.04800000000000003,-0.07495679999991955,-1.571360000000638,1.5323199999993313,0.9389120000002522,0.0,0.0
0.05000000000000003,-0.07487999999991965,-1.5697500000006375,1.530749999999332,0.9379500000002521,0.0,0.0
0.05200000000000003,-0.07480319999991972,-1.568140000000637,1.5291799999993325,0.9369880000002517,0.0,0.0
0.054000000000000034,-0.0747263999999198,-1.5665300000006361,1.5276099999993333,0.9360260000002515,0.0,0.0
0.056000000000000036,-0.07464959999991988,-1.5649200000006354,1.526039999999334,0.9350640000002511,0.0,0.0
0.05800000000000004,-0.07457279999991996,-1.5633100000006348,1.5244699999993347,0.9341020000002509,0.0,0.0
0.06000000000000004,-0.07449599999992004,-1.5617000000006342,1.5228999999993353,0.9331400000002507,0.0,0.0
0.06200000000000004,-0.07441919999992012,-1.5600900000006335,1.521329999999336,0.9321780000002504,0.0,0.0
0.06400000000000004,-0.0743423999999202,-1.5584800000006331,1.5197599999993368,0.9312160000002503,0.0,0.0
0.06600000000000004,-0.0742655999999203,-1.5568700000006321,1.5181899999993373,0.9302540000002498,0.0,0.0
0.06800000000000005,-0.07418879999992037,-1.5552600000006316,1.5166199999993382,0.9292920000002497,0.0,0.0
0.07000000000000005,-0.07411199999992045,-1.5536500000006308,1.5150499999993388,0.9283300000002493,0.0,0.0
0.07200000000000005,-0.07403519999992053,-1.5520400000006302,1.5134799999993394,0.9273680000002491,0.0,0.0
0.07400000000000005,-0.07395839999992063,-1.5504300000006295,1.5119099999993402,0.9264060000002489,0.0,0.0
0.07600000000000005,-0.07388159999992071,-1.548820000000629,1.5103399999993408,0.9254440000002486,0.0,0.0
0.07800000000000006,-0.07380479999992079,-1.5472100000006281,1.5087699999993416,0.9244820000002484,0.0,0.0
0.08000000000000006,-0.07372799999992088,-1.5456000000006276,1.5071999999993422,0.923520000000248,0.0,0.0
0.08200000000000006,-0.07365119999992095,-1.543990000000627,1.5056299999993428,0.9225580000002478,0.0,0.0
0.08400000000000006,-0.07357439999992103,-1.5423800000006263,1.5040599999993436,0.9215960000002476,0.0,0.0
0.08600000000000006,-0.07349759999992111,-1.5407700000006257,1.5024899999993444,0.9206340000002473,0.0,0.0
0.08800000000000006,-0.0734207999999212,-1.539160000000625,1.500919999999345,0.9196720000002471,0.0,0.0
0.09000000000000007,-0.07334399999992128,-1.5375500000006246,1.4993499999993456,0.9187100000002467,0.0,0.0
0.09200000000000007,-0.07326719999992136,-1.5359400000006236,1.4977799999993464,0.9177480000002466,0.0,0.0
0.09400000000000007,-0.07319039999992144,-1.534330000000623,1.496209999999347,0.9167860000002462,0.0,0.0
0.09600000000000007,-0.07311359999992154,-1.5327200000006223,1.4946399999993476,0.915824000000246,0.0,0.0
0.09800000000000007,-0.0730367999999216,-1.5311100000006217,1.4930699999993486,0.9148620000002458,0.0,0.0
0.10000000000000007,-0.07295999999992168,-1.5295000000006211,1.491499999999349,0.9139000000002455,0.0,0.0
0.10200000000000008,-0.07288319999992178,-1.5278900000006206,1.4899299999993496,0.9129380000002452,0.0,0.0
0.10400000000000008,-0.07280639999992186,-1.52628000000062,1.4883599999993506,0.9119760000002449,0.0,0.0
0.10600000000000008,-0.07272959999992194,-1.524670000000619,1.486789999999351,0.9110140000002448,0.0,0.0
0.10800000000000008,-0.07265279999992202,-1.5230600000006185,1.4852199999993518,0.9100520000002444,0.0,0.0
0.11000000000000008,-0.07257599999992212,-1.5214500000006177,1.4836499999993527,0.9090900000002442,0.0,0.0
0.11200000000000009,-0.07249919999992219,-1.5198400000006171,1.482079999999353,0.9081280000002439,0.0,0.0
0.11400000000000009,-0.07242239999992227,-1.5182300000006166,1.4805099999993538,0.9071660000002436,0.0,0.0
0.11600000000000009,-0.07234559999992235,-1.516620000000616,1.4789399999993544,0.9062040000002434,0.0,0.0
0.11800000000000009,-0.07226879999992243,-1.515010000000615,1.4773699999993553,0.9052420000002431,0.0,0.0
0.12000000000000009,-0.07219199999992251,-1.5134000000006145,1.4757999999993558,0.904280000000243,0.0,0.0
0.1220000000000001,-0.0721151999999226,-1.511790000000614,1.4742299999993564,0.9033180000002426,0.0,0.0
0.1240000000000001,-0.07203839999992268,-1.5101800000006131,1.4726599999993573,0.9023560000002423,0.0,0.0
0.12600000000000008,-0.07196159999992277,-1.5085700000006126,1.4710899999993579,0.9013940000002421,0.0,0.0
0.12800000000000009,-0.07188479999992284,-1.506960000000612,1.4695199999993587,0.9004320000002418,0.0,0.0
0.1300000000000001,-0.07180799999992292,-1.5053500000006113,1.4679499999993593,0.8994700000002416,0.0,0.0
0.1320000000000001,-0.07173119999992301,-1.5037400000006105,1.4663799999993599,0.8985080000002413,0.0,0.0
0.1340000000000001,-0.0716543999999231,-1.50213000000061,1.4648099999993607,0.8975460000002412,0.0,0.0
0.1360000000000001,-0.07157759999992318,-1.5005200000006091,1.4632399999993613,0.8965840000002407,0.0,0.0
0.1380000000000001,-0.07150079999992326,-1.4989100000006086,1.461669999999362,0.8956220000002405,0.0,0.0
0.1400000000000001,-0.07142399999992335,-1.497300000000608,1.4600999999993627,0.8946600000002403,0.0,0.0
0.1420000000000001,-0.07134719999992342,-1.4956900000006073,1.4585299999993633,0.89369800000024,0.0,0.0
0.1440000000000001,-0.0712703999999235,-1.4940800000006067,1.456959999999364,0.8927360000002399,0.0,0.0
0.1460000000000001,-0.07119359999992358,-1.492470000000606,1.4553899999993647,0.8917740000002395,0.0,0.0
0.1480000000000001,-0.07111679999992367,-1.4908600000006054,1.4538199999993655,0.8908120000002393,0.0,0.0
0.1500000000000001,-0.07103999999992375,-1.4892500000006046,1.452249999999366,0.889850000000239,0.0,0.0
0.1520000000000001,-0.07096319999992383,-1.487640000000604,1.4506799999993667,0.8888880000002387,0.0,0.0
0.1540000000000001,-0.07088639999992391,-1.4860300000006033,1.4491099999993675,0.8879260000002385,0.0,0.0
0.1560000000000001,-0.070809599999924,-1.4844200000006027,1.4475399999993683,0.8869640000002382,0.0,0.0
0.1580000000000001,-0.07073279999992407,-1.482810000000602,1.445969999999369,0.8860020000002381,0.0,0.0
0.16000000000000011,-0.07065599999992417,-1.4812000000006014,1.4443999999993695,0.8850400000002376,0.0,0.0
0.16200000000000012,-0.07057919999992425,-1.4795900000006008,1.4428299999993703,0.8840780000002375,0.0,0.0
0.16400000000000012,-0.07050239999992433,-1.4779800000006,1.441259999999371,0.8831160000002372,0.0,0.0
0.16600000000000012,-0.07042559999992441,-1.4763700000005997,1.4396899999993715,0.8821540000002369,0.0,0.0
0.16800000000000012,-0.0703487999999245,-1.4747600000005987,1.4381199999993726,0.8811920000002367,0.0,0.0
0.17000000000000012,-0.07027199999992459,-1.4731500000005981,1.436549999999373,0.8802300000002364,0.0,0.0
0.17200000000000013,-0.07019519999992466,-1.4715400000005974,1.4349799999993735,0.8792680000002361,0.0,0.0
0.17400000000000013,-0.07011839999992474,-1.4699300000005968,1.4334099999993746,0.8783060000002358,0.0,0.0
0.17600000000000013,-0.07004159999992482,-1.468320000000596,1.431839999999375,0.8773440000002357,0.0,0.0
0.17800000000000013,-0.0699647999999249,-1.4667100000005957,1.4302699999993758,0.8763820000002354,0.0,0.0
0.18000000000000013,-0.06988799999992498,-1.4651000000005951,1.4286999999993766,0.8754200000002351,0.0,0.0
0.18200000000000013,-0.06981119999992506,-1.4634900000005941,1.427129999999377,0.8744580000002349,0.0,0.0
0.18400000000000014,-0.06973439999992515,-1.4618800000005936,1.4255599999993778,0.8734960000002345,0.0,0.0
0.18600000000000014,-0.06965759999992523,-1.4602700000005928,1.4239899999993784,0.8725340000002344,0.0,0.0
0.18800000000000014,-0.06958079999992531,-1.4586600000005923,1.4224199999993792,0.871572000000234,0.0,0.0
0.19000000000000014,-0.0695039999999254,-1.4570500000005915,1.4208499999993798,0.8706100000002338,0.0,0.0
0.19200000000000014,-0.06942719999992548,-1.4554400000005911,1.4192799999993804,0.8696480000002336,0.0,0.0
0.19400000000000014,-0.06935039999992557,-1.4538300000005902,1.4177099999993812,0.8686860000002333,0.0,0.0
0.19600000000000015,-0.06927359999992565,-1.4522200000005896,1.4161399999993818,0.867724000000233,0.0,0.0
0.19800000000000015,-0.06919679999992573,-1.450610000000589,1.4145699999993826,0.8667620000002327,0.0,0.0
0.20000000000000015,-0.06911999999992581,-1.4490000000005883,1.4129999999993832,0.8658000000002326,0.0,0.0
0.20200000000000015,-0.06904319999992589,-1.4473900000005877,1.4114299999993838,0.8648380000002323,0.0,0.0
0.20400000000000015,-0.06896639999992597,-1.4457800000005872,1.4098599999993846,0.863876000000232,0.0,0.0
0.20600000000000016,-0.06888959999992605,-1.4441700000005864,1.4082899999993852,0.8629140000002318,0.0,0.0
0.20800000000000016,-0.06881279999992614,-1.4425600000005856,1.406719999999386,0.8619520000002314,0.0,0.0
0.21000000000000016,-0.06873599999992622,-1.440950000000585,1.4051499999993866,0.8609900000002312,0.0,0.0
0.21200000000000016,-0.0686591999999263,-1.4393400000005843,1.4035799999993872,0.8600280000002309,0.0,0.0
0.21400000000000016,-0.06858239999992638,-1.4377300000005837,1.402009999999388,0.8590660000002308,0.0,0.0
0.21600000000000016,-0.06850559999992646,-1.4361200000005832,1.4004399999993886,0.8581040000002305,0.0,0.0
0.21800000000000017,-0.06842879999992656,-1.4345100000005826,1.3988699999993894,0.8571420000002302,0.0,0.0
0.22000000000000017,-0.06835199999992664,-1.4329000000005818,1.39729999999939,0.8561800000002299,0.0,0.0
0.22200000000000017,-0.06827519999992672,-1.431290000000581,1.3957299999993906,0.8552180000002296,0.0,0.0
0.22400000000000017,-0.0681983999999268,-1.4296800000005805,1.3941599999993914,0.8542560000002294,0.0,0.0
0.22600000000000017,-0.06812159999992688,-1.4280700000005797,1.3925899999993923,0.8532940000002291,0.0,0.0
0.22800000000000017,-0.06804479999992696,-1.4264600000005792,1.3910199999993929,0.852332000000229,0.0,0.0
0.23000000000000018,-0.06796799999992705,-1.4248500000005786,1.3894499999993934,0.8513700000002286,0.0,0.0
0.23200000000000018,-0.06789119999992713,-1.4232400000005778,1.3878799999993943,0.8504080000002283,0.0,0.0
0.23400000000000018,-0.06781439999992721,-1.421630000000577,1.3863099999993949,0.8494460000002281,0.0,0.0
0.23600000000000018,-0.06773759999992729,-1.4200200000005765,1.3847399999993955,0.8484840000002278,0.0,0.0
0.23800000000000018,-0.06766079999992737,-1.418410000000576,1.3831699999993965,0.8475220000002276,0.0,0.0
0.24000000000000019,-0.06758399999992745,-1.4168000000005752,1.3815999999993969,0.8465600000002274,0.0,0.0
0.2420000000000002,-0.06750719999992753,-1.4151900000005746,1.3800299999993975,0.8455980000002271,0.0,0.0
0.2440000000000002,-0.06743039999992761,-1.4135800000005738,1.3784599999993985,0.8446360000002268,0.0,0.0
0.2460000000000002,-0.0673535999999277,-1.4119700000005733,1.3768899999993989,0.8436740000002265,0.0,0.0
0.2480000000000002,-0.06727679999992779,-1.4103600000005725,1.3753199999993997,0.8427120000002263,0.0,0.0
0.25000000000000017,-0.06719999999992787,-1.408750000000572,1.3737499999994005,0.841750000000226,0.0,0.0
0.25200000000000017,-0.06712319999992795,-1.4071400000005712,1.3721799999994009,0.8407880000002259,0.0,0.0
0.25400000000000017,-0.06704639999992804,-1.4055300000005706,1.3706099999994017,0.8398260000002254,0.0,0.0
0.25600000000000017,-0.06696959999992812,-1.4039200000005698,1.3690399999994023,0.8388640000002253,0.0,0.0
0.2580000000000002,-0.0668927999999282,-1.4023100000005693,1.367469999999403,0.837902000000225,0.0,0.0
0.2600000000000002,-0.06681599999992828,-1.4007000000005687,1.3658999999994037,0.8369400000002247,0.0,0.0
0.2620000000000002,-0.06673919999992836,-1.399090000000568,1.3643299999994043,0.8359780000002245,0.0,0.0
0.2640000000000002,-0.06666239999992844,-1.3974800000005674,1.3627599999994051,0.8350160000002242,0.0,0.0
0.2660000000000002,-0.06658559999992852,-1.3958700000005666,1.3611899999994057,0.8340540000002239,0.0,0.0
0.2680000000000002,-0.0665087999999286,-1.3942600000005663,1.3596199999994065,0.8330920000002237,0.0,0.0
0.2700000000000002,-0.06643199999992869,-1.3926500000005653,1.3580499999994071,0.8321300000002235,0.0,0.0
0.2720000000000002,-0.06635519999992877,-1.3910400000005647,1.3564799999994077,0.8311680000002232,0.0,0.0
0.2740000000000002,-0.06627839999992885,-1.389430000000564,1.3549099999994085,0.8302060000002229,0.0,0.0
0.2760000000000002,-0.06620159999992895,-1.3878200000005634,1.3533399999994091,0.8292440000002227,0.0,0.0
0.2780000000000002,-0.06612479999992903,-1.3862100000005628,1.35176999999941,0.8282820000002223,0.0,0.0
0.2800000000000002,-0.06604799999992911,-1.3846000000005623,1.3501999999994105,0.8273200000002222,0.0,0.0
0.2820000000000002,-0.06597119999992919,-1.3829900000005617,1.3486299999994114,0.8263580000002219,0.0,0.0
0.2840000000000002,-0.06589439999992927,-1.3813800000005607,1.347059999999412,0.8253960000002216,0.0,0.0
0.2860000000000002,-0.06581759999992935,-1.3797700000005602,1.3454899999994125,0.8244340000002214,0.0,0.0
0.2880000000000002,-0.06574079999992943,-1.3781600000005594,1.3439199999994134,0.8234720000002211,0.0,0.0
0.2900000000000002,-0.06566399999992951,-1.3765500000005588,1.342349999999414,0.8225100000002208,0.0,0.0
0.2920000000000002,-0.0655871999999296,-1.3749400000005583,1.3407799999994148,0.8215480000002205,0.0,0.0
0.2940000000000002,-0.06551039999992968,-1.3733300000005577,1.3392099999994154,0.8205860000002204,0.0,0.0
0.2960000000000002,-0.06543359999992976,-1.3717200000005567,1.3376399999994162,0.8196240000002201,0.0,0.0
0.2980000000000002,-0.06535679999992984,-1.3701100000005562,1.3360699999994168,0.8186620000002198,0.0,0.0
0.3000000000000002,-0.06527999999992992,-1.3685000000005556,1.3344999999994174,0.8177000000002196,0.0,0.0
0.3020000000000002,-0.06520319999993,-1.3668900000005548,1.3329299999994182,0.8167380000002192,0.0,0.0
0.3040000000000002,-0.0651263999999301,-1.3652800000005543,1.3313599999994188,0.815776000000219,0.0,0.0
0.3060000000000002,-0.06504959999993018,-1.3636700000005537,1.3297899999994194,0.8148140000002188,0.0,0.0
0.3080000000000002,-0.06497279999993026,-1.362060000000553,1.3282199999994204,0.8138520000002186,0.0,0.0
0.3100000000000002,-0.06489599999993034,-1.3604500000005522,1.3266499999994208,0.8128900000002183,0.0,0.0
0.3120000000000002,-0.06481919999993042,-1.3588400000005516,1.3250799999994216,0.811928000000218,0.0,0.0
0.3140000000000002,-0.0647423999999305,-1.3572300000005508,1.3235099999994224,0.8109660000002177,0.0,0.0
0.3160000000000002,-0.06466559999993059,-1.3556200000005503,1.3219399999994228,0.8100040000002174,0.0,0.0
0.3180000000000002,-0.06458879999993067,-1.3540100000005497,1.3203699999994236,0.8090420000002172,0.0,0.0
0.32000000000000023,-0.06451199999993075,-1.352400000000549,1.3187999999994244,0.808080000000217,0.0,0.0
0.32200000000000023,-0.06443519999993083,-1.3507900000005484,1.317229999999425,0.8071180000002168,0.0,0.0
0.32400000000000023,-0.06435839999993091,-1.3491800000005476,1.3156599999994256,0.8061560000002165,0.0,0.0
0.32600000000000023,-0.064281599999931,-1.347570000000547,1.3140899999994262,0.8051940000002161,0.0,0.0
0.32800000000000024,-0.06420479999993108,-1.3459600000005463,1.312519999999427,0.8042320000002159,0.0,0.0
0.33000000000000024,-0.06412799999993116,-1.3443500000005457,1.3109499999994276,0.8032700000002156,0.0,0.0
0.33200000000000024,-0.06405119999993124,-1.3427400000005452,1.3093799999994287,0.8023080000002154,0.0,0.0
0.33400000000000024,-0.06397439999993133,-1.3411300000005444,1.307809999999429,0.8013460000002152,0.0,0.0
0.33600000000000024,-0.06389759999993141,-1.3395200000005436,1.3062399999994296,0.8003840000002149,0.0,0.0
0.33800000000000024,-0.0638207999999315,-1.337910000000543,1.3046699999994305,0.7994220000002146,0.0,0.0
0.34000000000000025,-0.06374399999993158,-1.3363000000005425,1.303099999999431,0.7984600000002143,0.0,0.0
0.34200000000000025,-0.06366719999993166,-1.3346900000005417,1.3015299999994319,0.7974980000002141,0.0,0.0
0.34400000000000025,-0.06359039999993174,-1.3330800000005414,1.2999599999994325,0.7965360000002139,0.0,0.0
0.34600000000000025,-0.06351359999993182,-1.3314700000005404,1.298389999999433,0.7955740000002137,0.0,0.0
0.34800000000000025,-0.0634367999999319,-1.3298600000005398,1.2968199999994339,0.7946120000002133,0.0,0.0
0.35000000000000026,-0.06335999999993198,-1.328250000000539,1.2952499999994345,0.7936500000002131,0.0,0.0
0.35200000000000026,-0.06328319999993207,-1.3266400000005385,1.2936799999994353,0.7926880000002128,0.0,0.0
0.35400000000000026,-0.06320639999993215,-1.3250300000005377,1.2921099999994359,0.7917260000002125,0.0,0.0
0.35600000000000026,-0.06312959999993223,-1.3234200000005372,1.2905399999994365,0.7907640000002123,0.0,0.0
0.35800000000000026,-0.06305279999993231,-1.3218100000005368,1.2889699999994373,0.7898020000002121,0.0,0.0
0.36000000000000026,-0.06297599999993239,-1.3202000000005358,1.2873999999994379,0.7888400000002117,0.0,0.0
0.36200000000000027,-0.06289919999993249,-1.3185900000005353,1.2858299999994387,0.7878780000002115,0.0,0.0
0.36400000000000027,-0.06282239999993257,-1.3169800000005345,1.2842599999994393,0.7869160000002113,0.0,0.0
0.36600000000000027,-0.06274559999993265,-1.315370000000534,1.2826899999994401,0.785954000000211,0.0,0.0
0.36800000000000027,-0.06266879999993273,-1.3137600000005332,1.2811199999994407,0.7849920000002107,0.0,0.0
0.3700000000000003,-0.06259199999993281,-1.3121500000005328,1.2795499999994413,0.7840300000002105,0.0,0.0
0.3720000000000003,-0.0625151999999329,-1.3105400000005318,1.2779799999994421,0.7830680000002102,0.0,0.0
0.3740000000000003,-0.062438399999932975,-1.3089300000005313,1.2764099999994427,0.7821060000002099,0.0,0.0
0.3760000000000003,-0.06236159999993306,-1.3073200000005307,1.2748399999994433,0.7811440000002097,0.0,0.0
0.3780000000000003,-0.06228479999993314,-1.30571000000053,1.2732699999994443,0.7801820000002094,0.0,0.0
0.3800000000000003,-0.06220799999993322,-1.3041000000005294,1.2716999999994447,0.7792200000002092,0.0,0.0
0.3820000000000003,-0.0621311999999333,-1.3024900000005288,1.2701299999994455,0.778258000000209,0.0,0.0
0.3840000000000003,-0.062054399999933396,-1.300880000000528,1.2685599999994464,0.7772960000002086,0.0,0.0
0.3860000000000003,-0.06197759999993347,-1.2992700000005273,1.2669899999994467,0.7763340000002084,0.0,0.0
0.3880000000000003,-0.06190079999993355,-1.2976600000005267,1.2654199999994475,0.7753720000002082,0.0,0.0
0.3900000000000003,-0.06182399999993363,-1.296050000000526,1.2638499999994484,0.7744100000002079,0.0,0.0
0.3920000000000003,-0.06174719999993372,-1.2944400000005254,1.262279999999449,0.7734480000002076,0.0,0.0
0.3940000000000003,-0.061670399999933796,-1.2928300000005248,1.2607099999994495,0.7724860000002074,0.0,0.0
0.3960000000000003,-0.06159359999993388,-1.2912200000005243,1.2591399999994501,0.771524000000207,0.0,0.0
0.3980000000000003,-0.06151679999993396,-1.2896100000005235,1.257569999999451,0.7705620000002068,0.0,0.0
0.4000000000000003,-0.06143999999993405,-1.2880000000005227,1.2559999999994516,0.7696000000002066,0.0,0.0
0.4020000000000003,-0.06136319999993413,-1.2863900000005222,1.2544299999994526,0.7686380000002064,0.0,0.0
0.4040000000000003,-0.06128639999993421,-1.2847800000005214,1.252859999999453,0.7676760000002061,0.0,0.0
0.4060000000000003,-0.06120959999993429,-1.2831700000005208,1.2512899999994536,0.7667140000002058,0.0,0.0
0.4080000000000003,-0.06113279999993437,-1.2815600000005203,1.2497199999994544,0.7657520000002055,0.0,0.0
0.4100000000000003,-0.061055999999934454,-1.2799500000005195,1.248149999999455,0.7647900000002053,0.0,0.0
0.4120000000000003,-0.060979199999934536,-1.2783400000005187,1.2465799999994558,0.763828000000205,0.0,0.0
0.4140000000000003,-0.06090239999993463,-1.2767300000005182,1.2450099999994564,0.7628660000002048,0.0,0.0
0.4160000000000003,-0.060825599999934706,-1.2751200000005176,1.243439999999457,0.7619040000002046,0.0,0.0
0.4180000000000003,-0.06074879999993479,-1.2735100000005168,1.2418699999994578,0.7609420000002043,0.0,0.0
0.4200000000000003,-0.06067199999993487,-1.2719000000005163,1.2402999999994584,0.7599800000002039,0.0,0.0
0.4220000000000003,-0.06059519999993496,-1.2702900000005155,1.2387299999994592,0.7590180000002037,0.0,0.0
0.4240000000000003,-0.06051839999993503,-1.268680000000515,1.2371599999994598,0.7580560000002035,0.0,0.0
0.4260000000000003,-0.06044159999993511,-1.2670700000005142,1.2355899999994604,0.7570940000002032,0.0,0.0
0.4280000000000003,-0.0603647999999352,-1.2654600000005136,1.2340199999994612,0.756132000000203,0.0,0.0
0.4300000000000003,-0.06028799999993528,-1.2638500000005128,1.2324499999994618,0.7551700000002028,0.0,0.0
0.43200000000000033,-0.060211199999935364,-1.2622400000005123,1.2308799999994626,0.7542080000002024,0.0,0.0
0.43400000000000033,-0.060134399999935445,-1.2606300000005115,1.2293099999994632,0.7532460000002021,0.0,0.0
0.43600000000000033,-0.060057599999935526,-1.259020000000511,1.227739999999464,0.7522840000002019,0.0,0.0
0.43800000000000033,-0.05998079999993561,-1.2574100000005104,1.2261699999994646,0.7513220000002017,0.0,0.0
0.44000000000000034,-0.05990399999993569,-1.2558000000005096,1.2245999999994652,0.7503600000002014,0.0,0.0
0.44200000000000034,-0.05982719999993578,-1.254190000000509,1.223029999999466,0.7493980000002011,0.0,0.0
0.44400000000000034,-0.059750399999935866,-1.2525800000005083,1.2214599999994666,0.7484360000002009,0.0,0.0
0.44600000000000034,-0.05967359999993594,-1.250970000000508,1.2198899999994672,0.7474740000002006,0.0,0.0
0.44800000000000034,-0.05959679999993602,-1.249360000000507,1.2183199999994683,0.7465120000002003,0.0,0.0
0.45000000000000034,-0.0595199999999361,-1.2477500000005064,1.2167499999994686,0.7455500000002001,0.0,0.0
0.45200000000000035,-0.05944319999993619,-1.2461400000005056,1.2151799999994695,0.7445880000001999,0.0,0.0
0.45400000000000035,-0.059366399999936266,-1.244530000000505,1.2136099999994703,0.7436260000001995,0.0,0.0
0.45600000000000035,-0.059289599999936354,-1.2429200000005045,1.2120399999994707,0.7426640000001993,0.0,0.0
0.45800000000000035,-0.059212799999936436,-1.241310000000504,1.2104699999994715,0.7417020000001991,0.0,0.0
0.46000000000000035,-0.05913599999993652,-1.2397000000005034,1.208899999999472,0.7407400000001988,0.0,0.0
0.46200000000000035,-0.0590591999999366,-1.2380900000005024,1.2073299999994729,0.7397780000001986,0.0,0.0
0.46400000000000036,-0.05898239999993668,-1.2364800000005018,1.2057599999994735,0.7388160000001983,0.0,0.0
0.46600000000000036,-0.05890559999993676,-1.234870000000501,1.204189999999474,0.737854000000198,0.0,0.0
0.46800000000000036,-0.05882879999993684,-1.2332600000005005,1.2026199999994749,0.7368920000001977,0.0,0.0
0.47000000000000036,-0.058751999999936924,-1.2316500000004997,1.2010499999994755,0.7359300000001975,0.0,0.0
0.47200000000000036,-0.05867519999993701,-1.2300400000004994,1.1994799999994763,0.7349680000001974,0.0,0.0
0.47400000000000037,-0.0585983999999371,-1.2284300000004984,1.197909999999477,0.734006000000197,0.0,0.0
0.47600000000000037,-0.058521599999937175,-1.2268200000004978,1.1963399999994775,0.7330440000001968,0.0,0.0
0.47800000000000037,-0.05844479999993726,-1.2252100000004973,1.1947699999994783,0.7320820000001964,0.0,0.0
0.48000000000000037,-0.05836799999993734,-1.2236000000004965,1.193199999999479,0.7311200000001962,0.0,0.0
0.4820000000000004,-0.058291199999937426,-1.221990000000496,1.1916299999994797,0.730158000000196,0.0,0.0
0.4840000000000004,-0.0582143999999375,-1.2203800000004954,1.1900599999994803,0.7291960000001957,0.0,0.0
0.4860000000000004,-0.05813759999993759,-1.2187700000004946,1.188489999999481,0.7282340000001954,0.0,0.0
0.4880000000000004,-0.05806079999993767,-1.2171600000004938,1.1869199999994817,0.7272720000001952,0.0,0.0
0.4900000000000004,-0.05798399999993775,-1.2155500000004933,1.1853499999994823,0.7263100000001949,0.0,0.0
0.4920000000000004,-0.05790719999993783,-1.2139400000004925,1.1837799999994831,0.7253480000001946,0.0,0.0
0.4940000000000004,-0.057830399999937915,-1.212330000000492,1.1822099999994837,0.7243860000001944,0.0,0.0
0.4960000000000004,-0.057753599999937996,-1.2107200000004914,1.1806399999994843,0.7234240000001942,0.0,0.0
0.4980000000000004,-0.05767679999993808,-1.2091100000004906,1.1790699999994851,0.7224620000001939,0.0,0.0
0.5000000000000003,-0.057599999999938166,-1.20750000000049,1.177499999999486,0.7215000000001937,0.0,0.0
0.5020000000000003,-0.057523199999938254,-1.2058900000004895,1.1759299999994866,0.7205380000001934,0.0,0.0
0.5040000000000003,-0.057446399999938336,-1.2042800000004887,1.1743599999994871,0.7195760000001931,0.0,0.0
0.5060000000000003,-0.05736959999993842,-1.2026700000004882,1.172789999999488,0.718614000000193,0.0,0.0
0.5080000000000003,-0.05729279999993849,-1.2010600000004874,1.1712199999994886,0.7176520000001926,0.0,0.0
0.5100000000000003,-0.05721599999993858,-1.199450000000487,1.1696499999994894,0.7166900000001925,0.0,0.0
0.5120000000000003,-0.05713919999993866,-1.197840000000486,1.16807999999949,0.7157280000001921,0.0,0.0
0.5140000000000003,-0.05706239999993875,-1.1962300000004855,1.1665099999994908,0.7147660000001919,0.0,0.0
0.5160000000000003,-0.056985599999938824,-1.1946200000004847,1.1649399999994912,0.7138040000001915,0.0,0.0
0.5180000000000003,-0.05690879999993892,-1.1930100000004842,1.1633699999994922,0.7128420000001914,0.0,0.0
0.5200000000000004,-0.05683199999993899,-1.1914000000004834,1.1617999999994926,0.711880000000191,0.0,0.0
0.5220000000000004,-0.056755199999939075,-1.189790000000483,1.1602299999994934,0.7109180000001909,0.0,0.0
0.5240000000000004,-0.05667839999993915,-1.188180000000482,1.1586599999994942,0.7099560000001907,0.0,0.0
0.5260000000000004,-0.05660159999993925,-1.1865700000004817,1.1570899999994948,0.7089940000001903,0.0,0.0
0.5280000000000004,-0.05652479999993931,-1.1849600000004807,1.1555199999994954,0.70803200000019,0.0,0.0
0.5300000000000004,-0.05644799999993941,-1.1833500000004804,1.1539499999994964,0.7070700000001898,0.0,0.0
0.5320000000000004,-0.05637119999993948,-1.1817400000004794,1.1523799999994968,0.7061080000001895,0.0,0.0
0.5340000000000004,-0.05629439999993958,-1.180130000000479,1.1508099999994976,0.7051460000001895,0.0,0.0
0.5360000000000004,-0.056217599999939645,-1.1785200000004785,1.149239999999498,0.704184000000189,0.0,0.0
0.5380000000000004,-0.05614079999993973,-1.1769100000004777,1.147669999999499,0.7032220000001888,0.0,0.0
0.5400000000000004,-0.05606399999993981,-1.175300000000477,1.1460999999994994,0.7022600000001884,0.0,0.0
0.5420000000000004,-0.0559871999999399,-1.1736900000004764,1.1445299999995002,0.7012980000001883,0.0,0.0
0.5440000000000004,-0.05591039999993998,-1.1720800000004756,1.1429599999995008,0.7003360000001879,0.0,0.0
0.5460000000000004,-0.055833599999940066,-1.170470000000475,1.1413899999995016,0.6993740000001878,0.0,0.0
0.5480000000000004,-0.05575679999994014,-1.1688600000004745,1.1398199999995022,0.6984120000001875,0.0,0.0
0.5500000000000004,-0.05567999999994023,-1.1672500000004737,1.138249999999503,0.6974500000001872,0.0,0.0
0.5520000000000004,-0.0556031999999403,-1.165640000000473,1.1366799999995036,0.696488000000187,0.0,0.0
0.5540000000000004,-0.0555263999999404,-1.1640300000004724,1.1351099999995045,0.6955260000001867,0.0,0.0
0.5560000000000004,-0.055449599999940466,-1.1624200000004716,1.1335399999995048,0.6945640000001864,0.0,0.0
0.5580000000000004,-0.05537279999994056,-1.160810000000471,1.1319699999995059,0.6936020000001862,0.0,0.0
0.5600000000000004,-0.055295999999940636,-1.1592000000004705,1.1303999999995062,0.6926400000001858,0.0,0.0
0.5620000000000004,-0.055219199999940724,-1.1575900000004702,1.128829999999507,0.6916780000001858,0.0,0.0
0.5640000000000004,-0.055142399999940805,-1.155980000000469,1.1272599999995077,0.6907160000001853,0.0,0.0
0.5660000000000004,-0.05506559999994089,-1.1543700000004686,1.1256899999995085,0.6897540000001852,0.0,0.0
0.5680000000000004,-0.05498879999994096,-1.1527600000004676,1.124119999999509,0.6887920000001848,0.0,0.0
0.5700000000000004,-0.054911999999941064,-1.1511500000004673,1.1225499999995099,0.6878300000001847,0.0,0.0
0.5720000000000004,-0.05483519999994114,-1.1495400000004665,1.1209799999995105,0.6868680000001842,0.0,0.0
0.5740000000000004,-0.05475839999994122,-1.1479300000004662,1.1194099999995113,0.6859060000001841,0.0,0.0
0.5760000000000004,-0.054681599999941294,-1.1463200000004652,1.117839999999512,0.6849440000001837,0.0,0.0
0.5780000000000004,-0.05460479999994139,-1.1447100000004646,1.1162699999995127,0.6839820000001836,0.0,0.0
0.5800000000000004,-0.05452799999994146,-1.1431000000004639,1.114699999999513,0.6830200000001833,0.0,0.0
0.5820000000000004,-0.054451199999941545,-1.1414900000004633,1.113129999999514,0.6820580000001831,0.0,0.0
0.5840000000000004,-0.05437439999994162,-1.1398800000004625,1.1115599999995145,0.6810960000001827,0.0,0.0
0.5860000000000004,-0.05429759999994172,-1.138270000000462,1.1099899999995153,0.6801340000001825,0.0,0.0
0.5880000000000004,-0.05422079999994179,-1.1366600000004612,1.108419999999516,0.6791720000001822,0.0,0.0
0.5900000000000004,-0.05414399999994188,-1.1350500000004606,1.1068499999995167,0.6782100000001822,0.0,0.0
0.5920000000000004,-0.05406719999994195,-1.1334400000004599,1.1052799999995173,0.6772480000001817,0.0,0.0
0.5940000000000004,-0.05399039999994205,-1.1318300000004593,1.1037099999995181,0.6762860000001816,0.0,0.0
0.5960000000000004,-0.053913599999942115,-1.1302200000004585,1.1021399999995185,0.6753240000001811,0.0,0.0
0.5980000000000004,-0.05383679999994221,-1.128610000000458,1.1005699999995195,0.674362000000181,0.0,0.0
0.6000000000000004,-0.05375999999994228,-1.1270000000004572,1.09899999999952,0.6734000000001806,0.0,0.0
0.6020000000000004,-0.05368319999994237,-1.1253900000004569,1.0974299999995207,0.6724380000001805,0.0,0.0
0.6040000000000004,-0.05360639999994245,-1.1237800000004559,1.0958599999995213,0.6714760000001803,0.0,0.0
0.6060000000000004,-0.053529599999942536,-1.1221700000004555,1.0942899999995221,0.67051400000018,0.0,0.0
0.6080000000000004,-0.05345279999994261,-1.1205600000004545,1.0927199999995227,0.6695520000001797,0.0,0.0
0.6100000000000004,-0.0533759999999427,-1.1189500000004542,1.0911499999995236,0.6685900000001794,0.0,0.0
0.6120000000000004,-0.05329919999994277,-1.1173400000004532,1.0895799999995242,0.6676280000001791,0.0,0.0
0.6140000000000004,-0.05322239999994287,-1.1157300000004529,1.088009999999525,0.6666660000001791,0.0,0.0
0.6160000000000004,-0.05314559999994295,-1.114120000000452,1.0864399999995253,0.6657040000001786,0.0,0.0
0.6180000000000004,-0.05306879999994303,-1.1125100000004515,1.0848699999995264,0.6647420000001785,0.0,0.0
0.6200000000000004,-0.052991999999943105,-1.1109000000004507,1.0832999999995268,0.663780000000178,0.0,0.0
0.6220000000000004,-0.052915199999943194,-1.1092900000004502,1.0817299999995276,0.6628180000001779,0.0,0.0
0.6240000000000004,-0.052838399999943275,-1.1076800000004494,1.0801599999995282,0.6618560000001775,0.0,0.0
0.6260000000000004,-0.05276159999994336,-1.1060700000004489,1.078589999999529,0.6608940000001774,0.0,0.0
0.6280000000000004,-0.05268479999994343,-1.104460000000448,1.0770199999995296,0.659932000000177,0.0,0.0
0.6300000000000004,-0.05260799999994353,-1.1028500000004475,1.0754499999995304,0.6589700000001769,0.0,0.0
0.6320000000000005,-0.05253119999994361,-1.1012400000004468,1.073879999999531,0.6580080000001766,0.0,0.0
0.6340000000000005,-0.05245439999994369,-1.0996300000004462,1.0723099999995318,0.6570460000001763,0.0,0.0
0.6360000000000005,-0.052377599999943764,-1.0980200000004454,1.0707399999995322,0.656084000000176,0.0,0.0
0.6380000000000005,-0.05230079999994386,-1.0964100000004449,1.0691699999995332,0.6551220000001758,0.0,0.0
0.6400000000000005,-0.05222399999994393,-1.094800000000444,1.0675999999995336,0.6541600000001755,0.0,0.0
0.6420000000000005,-0.05214719999994402,-1.0931900000004438,1.0660299999995344,0.6531980000001752,0.0,0.0
0.6440000000000005,-0.05207039999994409,-1.0915800000004428,1.064459999999535,0.6522360000001749,0.0,0.0
0.6460000000000005,-0.05199359999994419,-1.0899700000004424,1.0628899999995358,0.6512740000001748,0.0,0.0
0.6480000000000005,-0.05191679999994426,-1.0883600000004414,1.0613199999995364,0.6503120000001744,0.0,0.0
0.6500000000000005,-0.05183999999994435,-1.086750000000441,1.0597499999995372,0.6493500000001743,0.0,0.0
0.6520000000000005,-0.05176319999994442,-1.08514000000044,1.0581799999995378,0.6483880000001739,0.0,0.0
0.6540000000000005,-0.05168639999994452,-1.0835300000004398,1.0566099999995386,0.6474260000001737,0.0,0.0
0.6560000000000005,-0.051609599999944585,-1.081920000000439,1.055039999999539,0.6464640000001733,0.0,0.0
0.6580000000000005,-0.05153279999994468,-1.0803100000004384,1.05346999999954,0.6455020000001732,0.0,0.0
0.6600000000000005,-0.051455999999944754,-1.0787000000004376,1.0518999999995404,0.644540000000173,0.0,0.0
0.6620000000000005,-0.05137919999994484,-1.077090000000437,1.0503299999995412,0.6435780000001727,0.0,0.0
0.6640000000000005,-0.05130239999994492,-1.0754800000004363,1.0487599999995418,0.6426160000001724,0.0,0.0
0.6660000000000005,-0.051225599999945005,-1.0738700000004358,1.0471899999995427,0.6416540000001721,0.0,0.0
0.6680000000000005,-0.05114879999994508,-1.072260000000435,1.0456199999995432,0.6406920000001718,0.0,0.0
0.6700000000000005,-0.051071999999945175,-1.0706500000004344,1.044049999999544,0.6397300000001718,0.0,0.0
0.6720000000000005,-0.05099519999994524,-1.0690400000004336,1.0424799999995447,0.6387680000001713,0.0,0.0
0.6740000000000005,-0.05091839999994534,-1.067430000000433,1.0409099999995455,0.6378060000001712,0.0,0.0
0.6760000000000005,-0.05084159999994542,-1.0658200000004323,1.0393399999995458,0.6368440000001708,0.0,0.0
0.6780000000000005,-0.0507647999999455,-1.0642100000004318,1.0377699999995469,0.6358820000001706,0.0,0.0
0.6800000000000005,-0.050687999999945575,-1.062600000000431,1.0361999999995473,0.6349200000001702,0.0,0.0
0.6820000000000005,-0.050611199999945664,-1.0609900000004306,1.034629999999548,0.6339580000001701,0.0,0.0
0.6840000000000005,-0.050534399999945745,-1.0593800000004296,1.0330599999995487,0.6329960000001699,0.0,0.0
0.6860000000000005,-0.05045759999994583,-1.0577700000004293,1.0314899999995495,0.6320340000001696,0.0,0.0
0.6880000000000005,-0.05038079999994591,-1.0561600000004283,1.02991999999955,0.6310720000001693,0.0,0.0
0.6900000000000005,-0.050303999999945996,-1.054550000000428,1.028349999999551,0.630110000000169,0.0,0.0
0.6920000000000005,-0.05022719999994608,-1.052940000000427,1.0267799999995515,0.6291480000001687,0.0,0.0
0.6940000000000005,-0.05015039999994616,-1.0513300000004266,1.0252099999995523,0.6281860000001686,0.0,0.0
0.6960000000000005,-0.05007359999994623,-1.0497200000004259,1.0236399999995527,0.6272240000001682,0.0,0.0
0.6980000000000005,-0.04999679999994633,-1.0481100000004253,1.0220699999995537,0.6262620000001681,0.0,0.0
0.7000000000000005,-0.0499199999999464,-1.0465000000004245,1.020499999999554,0.6253000000001677,0.0,0.0
0.7020000000000005,-0.04984319999994649,-1.044890000000424,1.018929999999555,0.6243380000001675,0.0,0.0
0.7040000000000005,-0.049766399999946566,-1.0432800000004232,1.0173599999995555,0.6233760000001671,0.0,0.0
0.7060000000000005,-0.04968959999994666,-1.0416700000004226,1.0157899999995563,0.622414000000167,0.0,0.0
0.7080000000000005,-0.04961279999994673,-1.0400600000004219,1.014219999999557,0.6214520000001666,0.0,0.0
0.7100000000000005,-0.04953599999994682,-1.0384500000004213,1.0126499999995577,0.6204900000001665,0.0,0.0
0.7120000000000005,-0.04945919999994689,-1.0368400000004205,1.0110799999995583,0.6195280000001663,0.0,0.0
0.7140000000000005,-0.04938239999994699,-1.03523000000042,1.0095099999995591,0.6185660000001659,0.0,0.0
0.7160000000000005,-0.049305599999947054,-1.0336200000004192,1.0079399999995595,0.6176040000001656,0.0,0.0
0.7180000000000005,-0.04922879999994715,-1.0320100000004186,1.0063699999995606,0.6166420000001654,0.0,0.0
0.7200000000000005,-0.049151999999947224,-1.0304000000004179,1.004799999999561,0.6156800000001651,0.0,0.0
0.7220000000000005,-0.04907519999994731,-1.0287900000004175,1.0032299999995618,0.6147180000001651,0.0,0.0
0.7240000000000005,-0.04899839999994739,-1.0271800000004165,1.0016599999995623,0.6137560000001646,0.0,0.0
0.7260000000000005,-0.048921599999947475,-1.0255700000004162,1.0000899999995632,0.6127940000001645,0.0,0.0
0.7280000000000005,-0.04884479999994755,-1.0239600000004152,0.9985199999995638,0.611832000000164,0.0,0.0
0.7300000000000005,-0.048767999999947645,-1.0223500000004149,0.9969499999995647,0.6108700000001639,0.0,0.0
0.7320000000000005,-0.04869119999994772,-1.020740000000414,0.9953799999995652,0.6099080000001635,0.0,0.0
0.7340000000000005,-0.04861439999994781,-1.0191300000004135,0.993809999999566,0.6089460000001634,0.0,0.0
0.7360000000000005,-0.04853759999994789,-1.0175200000004128,0.9922399999995665,0.6079840000001631,0.0,0.0
0.7380000000000005,-0.04846079999994797,-1.0159100000004122,0.9906699999995673,0.6070220000001628,0.0,0.0
0.7400000000000005,-0.048383999999948045,-1.0143000000004114,0.9890999999995679,0.6060600000001626,0.0,0.0
0.7420000000000005,-0.04830719999994813,-1.0126900000004109,0.9875299999995687,0.6050980000001623,0.0,0.0
0.7440000000000005,-0.048230399999948215,-1.01108000000041,0.9859599999995693,0.604136000000162,0.0,0.0
0.7460000000000006,-0.0481535999999483,-1.0094700000004095,0.9843899999995701,0.6031740000001619,0.0,0.0
0.7480000000000006,-0.04807679999994838,-1.0078600000004088,0.9828199999995706,0.6022120000001615,0.0,0.0
0.7500000000000006,-0.047999999999948466,-1.0062500000004082,0.9812499999995715,0.6012500000001614,0.0,0.0
0.7520000000000006,-0.04792319999994855,-1.0046400000004074,0.9796799999995719,0.6002880000001609,0.0,0.0
0.7540000000000006,-0.04784639999994863,-1.0030300000004069,0.9781099999995728,0.5993260000001608,0.0,0.0
0.7560000000000006,-0.0477695999999487,-1.001420000000406,0.9765399999995733,0.5983640000001604,0.0,0.0
0.7580000000000006,-0.047692799999948805,-0.9998100000004057,0.9749699999995741,0.5974020000001603,0.0,0.0
0.7600000000000006,-0.04761599999994887,-0.9982000000004049,0.9733999999995747,0.59644000000016,0.0,0.0
0.7620000000000006,-0.04753919999994896,-0.9965900000004044,0.9718299999995756,0.5954780000001597,0.0,0.0
0.7640000000000006,-0.047462399999949036,-0.9949800000004035,0.9702599999995761,0.5945160000001594,0.0,0.0
0.7660000000000006,-0.04738559999994913,-0.993370000000403,0.968689999999577,0.5935540000001592,0.0,0.0
0.7680000000000006,-0.0473087999999492,-0.9917600000004022,0.9671199999995774,0.592592000000159,0.0,0.0
0.7700000000000006,-0.04723199999994929,-0.9901500000004018,0.9655499999995782,0.5916300000001588,0.0,0.0
0.7720000000000006,-0.04715519999994936,-0.9885400000004009,0.9639799999995787,0.5906680000001583,0.0,0.0
0.7740000000000006,-0.047078399999949457,-0.9869300000004004,0.9624099999995797,0.5897060000001582,0.0,0.0
0.7760000000000006,-0.04700159999994953,-0.9853200000003995,0.9608399999995803,0.5887440000001578,0.0,0.0
0.7780000000000006,-0.04692479999994962,-0.9837100000003991,0.959269999999581,0.5877820000001578,0.0,0.0
0.7800000000000006,-0.046847999999949694,-0.9821000000003983,0.9576999999995816,0.5868200000001573,0.0,0.0
0.7820000000000006,-0.04677119999994978,-0.9804900000003978,0.9561299999995824,0.5858580000001572,0.0,0.0
0.7840000000000006,-0.04669439999994986,-0.978880000000397,0.9545599999995829,0.5848960000001567,0.0,0.0
0.7860000000000006,-0.04661759999994995,-0.9772700000003964,0.9529899999995838,0.5839340000001566,0.0,0.0
0.7880000000000006,-0.04654079999995002,-0.9756600000003957,0.9514199999995843,0.5829720000001563,0.0,0.0
0.7900000000000006,-0.046463999999950115,-0.9740500000003952,0.9498499999995851,0.5820100000001561,0.0,0.0
0.7920000000000006,-0.04638719999995019,-0.9724400000003944,0.9482799999995856,0.5810480000001559,0.0,0.0
0.7940000000000006,-0.04631039999995028,-0.970830000000394,0.9467099999995866,0.5800860000001556,0.0,0.0
0.7960000000000006,-0.04623359999995035,-0.969220000000393,0.945139999999587,0.5791240000001553,0.0,0.0
0.7980000000000006,-0.04615679999995044,-0.9676100000003925,0.9435699999995878,0.578162000000155,0.0,0.0
0.8000000000000006,-0.046079999999950515,-0.9660000000003917,0.9419999999995884,0.5772000000001547,0.0,0.0
0.8020000000000006,-0.04600319999995061,-0.9643900000003912,0.9404299999995892,0.5762380000001546,0.0,0.0
0.8040000000000006,-0.04592639999995069,-0.9627800000003904,0.9388599999995897,0.5752760000001542,0.0,0.0
0.8060000000000006,-0.04584959999995077,-0.96117000000039,0.9372899999995907,0.5743140000001541,0.0,0.0
0.8080000000000006,-0.04577279999995085,-0.9595600000003891,0.9357199999995912,0.5733520000001536,0.0,0.0
0.8100000000000006,-0.045695999999950936,-0.9579500000003887,0.9341499999995919,0.5723900000001535,0.0,0.0
0.8120000000000006,-0.04561919999995102,-0.9563400000003879,0.9325799999995924,0.5714280000001531,0.0,0.0
0.8140000000000006,-0.0455423999999511,-0.9547300000003873,0.9310099999995933,0.570466000000153,0.0,0.0
0.8160000000000006,-0.04546559999995117,-0.9531200000003864,0.9294399999995938,0.5695040000001527,0.0,0.0
0.8180000000000006,-0.045388799999951275,-0.951510000000386,0.9278699999995946,0.5685420000001525,0.0,0.0
0.8200000000000006,-0.04531199999995134,-0.9499000000003851,0.9262999999995953,0.5675800000001521,0.0,0.0
0.8220000000000006,-0.04523519999995143,-0.9482900000003847,0.924729999999596,0.566618000000152,0.0,0.0
0.8240000000000006,-0.045158399999951505,-0.9466800000003839,0.9231599999995965,0.5656560000001516,0.0,0.0
0.8260000000000006,-0.0450815999999516,-0.9450700000003833,0.9215899999995976,0.5646940000001515,0.0,0.0
0.8280000000000006,-0.04500479999995167,-0.9434600000003825,0.9200199999995979,0.5637320000001511,0.0,0.0
0.8300000000000006,-0.04492799999995176,-0.9418500000003821,0.9184499999995988,0.5627700000001511,0.0,0.0
0.8320000000000006,-0.04485119999995183,-0.9402400000003812,0.9168799999995992,0.5618080000001505,0.0,0.0
0.8340000000000006,-0.044774399999951926,-0.9386300000003808,0.9153099999996002,0.5608460000001504,0.0,0.0
0.8360000000000006,-0.044697599999952,-0.9370200000003799,0.9137399999996006,0.55988400000015,0.0,0.0
0.8380000000000006,-0.04462079999995209,-0.9354100000003795,0.9121699999996015,0.5589220000001499,0.0,0.0
0.8400000000000006,-0.044543999999952164,-0.9338000000003785,0.9105999999996022,0.5579600000001496,0.0,0.0
0.8420000000000006,-0.04446719999995225,-0.9321900000003781,0.9090299999996029,0.5569980000001494,0.0,0.0
0.8440000000000006,-0.044390399999952326,-0.9305800000003774,0.9074599999996034,0.556036000000149,0.0,0.0
0.8460000000000006,-0.04431359999995242,-0.9289700000003768,0.9058899999996043,0.5550740000001488,0.0,0.0
0.8480000000000006,-0.044236799999952496,-0.927360000000376,0.9043199999996048,0.5541120000001485,0.0,0.0
0.8500000000000006,-0.044159999999952584,-0.9257500000003756,0.9027499999996056,0.5531500000001484,0.0,0.0
0.8520000000000006,-0.04408319999995266,-0.9241400000003747,0.9011799999996061,0.552188000000148,0.0,0.0
0.8540000000000006,-0.04400639999995275,-0.9225300000003742,0.899609999999607,0.5512260000001479,0.0,0.0
0.8560000000000006,-0.04392959999995282,-0.9209200000003734,0.8980399999996075,0.5502640000001474,0.0,0.0
0.8580000000000007,-0.04385279999995292,-0.9193100000003729,0.8964699999996084,0.5493020000001473,0.0,0.0
0.8600000000000007,-0.043775999999952984,-0.917700000000372,0.8948999999996089,0.5483400000001469,0.0,0.0
0.8620000000000007,-0.04369919999995308,-0.9160900000003716,0.8933299999996097,0.5473780000001468,0.0,0.0
0.8640000000000007,-0.04362239999995316,-0.9144800000003708,0.8917599999996102,0.5464160000001465,0.0,0.0
0.8660000000000007,-0.04354559999995324,-0.9128700000003702,0.8901899999996111,0.5454540000001462,0.0,0.0
0.8680000000000007,-0.04346879999995332,-0.9112600000003694,0.8886199999996116,0.5444920000001459,0.0,0.0
0.8700000000000007,-0.043391999999953405,-0.9096500000003691,0.8870499999996124,0.5435300000001457,0.0,0.0
0.8720000000000007,-0.04331519999995349,-0.9080400000003681,0.885479999999613,0.5425680000001454,0.0,0.0
0.8740000000000007,-0.043238399999953575,-0.9064300000003677,0.8839099999996138,0.5416060000001452,0.0,0.0
0.8760000000000007,-0.04316159999995365,-0.9048200000003668,0.8823399999996143,0.5406440000001449,0.0,0.0
0.8780000000000007,-0.043084799999953745,-0.9032100000003663,0.8807699999996151,0.5396820000001447,0.0,0.0
0.8800000000000007,-0.04300799999995381,-0.9016000000003654,0.8791999999996157,0.5387200000001443,0.0,0.0
0.8820000000000007,-0.0429311999999539,-0.8999900000003651,0.8776299999996166,0.5377580000001442,0.0,0.0
0.8840000000000007,-0.042854399999953975,-0.8983800000003642,0.8760599999996171,0.5367960000001438,0.0,0.0
0.8860000000000007,-0.04277759999995407,-0.8967700000003637,0.874489999999618,0.5358340000001437,0.0,0.0
0.8880000000000007,-0.04270079999995414,-0.895160000000363,0.8729199999996184,0.5348720000001433,0.0,0.0
0.8900000000000007,-0.04262399999995423,-0.8935500000003624,0.8713499999996194,0.5339100000001431,0.0,0.0
0.8920000000000007,-0.04254719999995431,-0.8919400000003616,0.8697799999996197,0.5329480000001428,0.0,0.0
0.8940000000000007,-0.042470399999954396,-0.8903300000003611,0.8682099999996207,0.5319860000001426,0.0,0.0
0.8960000000000007,-0.04239359999995447,-0.8887200000003602,0.8666399999996212,0.5310240000001423,0.0,0.0
0.8980000000000007,-0.04231679999995456,-0.8871100000003598,0.865069999999622,0.5300620000001421,0.0,0.0
0.9000000000000007,-0.04223999999995463,-0.885500000000359,0.8634999999996226,0.5291000000001418,0.0,0.0
0.9020000000000007,-0.04216319999995473,-0.8838900000003586,0.8619299999996235,0.5281380000001415,0.0,0.0
0.9040000000000007,-0.042086399999954796,-0.8822800000003577,0.860359999999624,0.5271760000001412,0.0,0.0
0.9060000000000007,-0.04200959999995489,-0.8806700000003571,0.8587899999996248,0.5262140000001411,0.0,0.0
0.9080000000000007,-0.041932799999954966,-0.8790600000003563,0.8572199999996253,0.5252520000001407,0.0,0.0
0.9100000000000007,-0.041855999999955054,-0.8774500000003559,0.8556499999996261,0.5242900000001406,0.0,0.0
0.9120000000000007,-0.04177919999995513,-0.875840000000355,0.8540799999996266,0.5233280000001402,0.0,0.0
0.9140000000000007,-0.04170239999995522,-0.8742300000003546,0.8525099999996275,0.52236600000014,0.0,0.0
0.9160000000000007,-0.04162559999995529,-0.8726200000003537,0.8509399999996281,0.5214040000001396,0.0,0.0
0.9180000000000007,-0.04154879999995539,-0.8710100000003532,0.8493699999996288,0.5204420000001395,0.0,0.0
0.9200000000000007,-0.04147199999995546,-0.8694000000003526,0.8477999999996294,0.5194800000001392,0.0,0.0
0.9220000000000007,-0.04139519999995555,-0.8677900000003519,0.8462299999996303,0.518518000000139,0.0,0.0
0.9240000000000007,-0.04131839999995563,-0.8661800000003511,0.8446599999996307,0.5175560000001387,0.0,0.0
0.9260000000000007,-0.04124159999995571,-0.8645700000003506,0.8430899999996316,0.5165940000001384,0.0,0.0
0.9280000000000007,-0.04116479999995579,-0.8629600000003498,0.8415199999996321,0.5156320000001381,0.0,0.0
0.9300000000000007,-0.041087999999955875,-0.8613500000003493,0.8399499999996329,0.514670000000138,0.0,0.0
0.9320000000000007,-0.041011199999955956,-0.8597400000003486,0.8383799999996334,0.5137080000001376,0.0,0.0
0.9340000000000007,-0.040934399999956045,-0.8581300000003481,0.8368099999996345,0.5127460000001375,0.0,0.0
0.9360000000000007,-0.04085759999995612,-0.8565200000003471,0.8352399999996348,0.5117840000001371,0.0,0.0
0.9380000000000007,-0.040780799999956215,-0.8549100000003467,0.8336699999996356,0.5108220000001369,0.0,0.0
0.9400000000000007,-0.04070399999995628,-0.8533000000003459,0.8320999999996362,0.5098600000001365,0.0,0.0
0.9420000000000007,-0.04062719999995637,-0.8516900000003453,0.8305299999996371,0.5088980000001364,0.0,0.0
0.9440000000000007,-0.040550399999956445,-0.8500800000003446,0.8289599999996375,0.5079360000001361,0.0,0.0
0.9460000000000007,-0.04047359999995654,-0.8484700000003441,0.8273899999996385,0.5069740000001359,0.0,0.0
0.9480000000000007,-0.04039679999995661,-0.8468600000003432,0.8258199999996391,0.5060120000001356,0.0,0.0
0.9500000000000007,-0.0403199999999567,-0.8452500000003428,0.8242499999996398,0.5050500000001353,0.0,0.0
0.9520000000000007,-0.04024319999995678,-0.843640000000342,0.8226799999996403,0.504088000000135,0.0,0.0
0.9540000000000007,-0.040166399999956866,-0.8420300000003414,0.8211099999996412,0.5031260000001349,0.0,0.0
0.9560000000000007,-0.04008959999995694,-0.8404200000003406,0.8195399999996417,0.5021640000001345,0.0,0.0
0.9580000000000007,-0.04001279999995703,-0.8388100000003401,0.8179699999996425,0.5012020000001344,0.0,0.0
0.9600000000000007,-0.0399359999999571,-0.8372000000003393,0.8163999999996432,0.500240000000134,0.0,0.0
0.9620000000000007,-0.0398591999999572,-0.8355900000003388,0.8148299999996439,0.49927800000013384,0.0,0.0
0.9640000000000007,-0.03978239999995727,-0.8339800000003381,0.8132599999996444,0.4983160000001335,0.0,0.0
0.9660000000000007,-0.03970559999995736,-0.8323700000003375,0.8116899999996454,0.4973540000001333,0.0,0.0
0.9680000000000007,-0.039628799999957436,-0.8307600000003367,0.8101199999996458,0.49639200000013295,0.0,0.0
0.9700000000000008,-0.039551999999957524,-0.8291500000003362,0.8085499999996466,0.49543000000013276,0.0,0.0
0.9720000000000008,-0.0394751999999576,-0.8275400000003353,0.8069799999996471,0.4944680000001324,0.0,0.0
0.9740000000000008,-0.039398399999957694,-0.8259300000003349,0.805409999999648,0.49350600000013234,0.0,0.0
0.9760000000000008,-0.03932159999995776,-0.824320000000334,0.8038399999996485,0.49254400000013193,0.0,0.0
0.9780000000000008,-0.039244799999957856,-0.8227100000003337,0.8022699999996493,0.49158200000013175,0.0,0.0
0.9800000000000008,-0.03916799999995793,-0.8211000000003328,0.80069999999965,0.4906200000001314,0.0,0.0
0.9820000000000008,-0.03909119999995802,-0.8194900000003322,0.7991299999996507,0.4896580000001312,0.0,0.0
0.9840000000000008,-0.0390143999999581,-0.8178800000003316,0.7975599999996512,0.48869600000013086,0.0,0.0
0.9860000000000008,-0.03893759999995818,-0.8162700000003309,0.7959899999996521,0.4877340000001308,0.0,0.0
0.9880000000000008,-0.038860799999958257,-0.8146600000003301,0.7944199999996526,0.4867720000001303,0.0,0.0
0.9900000000000008,-0.03878399999995836,-0.8130500000003297,0.7928499999996534,0.4858100000001302,0.0,0.0
0.9920000000000008,-0.038707199999958426,-0.8114400000003288,0.7912799999996541,0.48484800000012984,0.0,0.0
0.9940000000000008,-0.038630399999958515,-0.8098300000003283,0.7897099999996549,0.48388600000012966,0.0,0.0
0.9960000000000008,-0.03855359999995859,-0.8082200000003276,0.7881399999996553,0.4829240000001293,0.0,0.0
0.9980000000000008,-0.038476799999958684,-0.806610000000327,0.7865699999996563,0.4819620000001292,0.0,0.0
1.0000000000000007,-0.03839999999995876,-0.8050000000003263,0.7849999999996569,0.48100000000012894,0.0,0.0
1.0020000000000007,-0.03832319999995884,-0.8033900000003257,0.7834299999996576,0.48003800000012864,0.0,0.0
1.0040000000000007,-0.03824639999995893,-0.801780000000325,0.7818599999996584,0.4790760000001284,0.0,0.0
1.0060000000000007,-0.03816959999995901,-0.8001700000003243,0.780289999999659,0.4781140000001281,0.0,0.0
1.0080000000000007,-0.03809279999995909,-0.7985600000003238,0.7787199999996596,0.47715200000012786,0.0,0.0
1.0100000000000007,-0.03801599999995917,-0.7969500000003232,0.7771499999996603,0.4761900000001276,0.0,0.0
1.0120000000000007,-0.037939199999959254,-0.7953400000003225,0.775579999999661,0.4752280000001273,0.0,0.0
1.0140000000000007,-0.037862399999959336,-0.7937300000003218,0.7740099999996617,0.47426600000012714,0.0,0.0
1.0160000000000007,-0.03778559999995942,-0.7921200000003212,0.7724399999996624,0.47330400000012685,0.0,0.0
1.0180000000000007,-0.037708799999959505,-0.7905100000003205,0.7708699999996631,0.47234200000012655,0.0,0.0
1.0200000000000007,-0.037631999999959594,-0.7889000000003198,0.7692999999996637,0.4713800000001263,0.0,0.0
1.0220000000000007,-0.03755519999995967,-0.7872900000003192,0.7677299999996644,0.470418000000126,0.0,0.0
1.0240000000000007,-0.03747839999995975,-0.7856800000003185,0.7661599999996651,0.4694560000001258,0.0,0.0
1.0260000000000007,-0.03740159999995983,-0.7840700000003178,0.7645899999996658,0.4684940000001256,0.0,0.0
1.0280000000000007,-0.03732479999995992,-0.7824600000003172,0.7630199999996665,0.4675320000001253,0.0,0.0
1.0300000000000007,-0.037247999999959994,-0.7808500000003166,0.7614499999996672,0.466570000000125,0.0,0.0
1.0320000000000007,-0.03717119999996008,-0.7792400000003159,0.7598799999996678,0.46560800000012476,0.0,0.0
1.0340000000000007,-0.03709439999996016,-0.7776300000003152,0.7583099999996685,0.46464600000012446,0.0,0.0
1.0360000000000007,-0.03701759999996025,-0.7760200000003146,0.7567399999996693,0.4636840000001242,0.0,0.0
1.0380000000000007,-0.036940799999960326,-0.7744100000003139,0.7551699999996699,0.462722000000124,0.0,0.0
1.0400000000000007,-0.03686399999996041,-0.7728000000003132,0.7535999999996705,0.4617600000001237,0.0,0.0
1.0420000000000007,-0.03678719999996049,-0.7711900000003127,0.7520299999996712,0.4607980000001235,0.0,0.0
1.0440000000000007,-0.03671039999996057,-0.7695800000003119,0.750459999999672,0.4598360000001232,0.0,0.0
1.0460000000000007,-0.03663359999996065,-0.7679700000003112,0.7488899999996727,0.4588740000001229,0.0,0.0
1.0480000000000007,-0.03655679999996074,-0.7663600000003108,0.7473199999996734,0.45791200000012267,0.0,0.0
1.0500000000000007,-0.03647999999996083,-0.76475000000031,0.745749999999674,0.4569500000001224,0.0,0.0
1.0520000000000007,-0.0364031999999609,-0.7631400000003093,0.7441799999996747,0.45598800000012213,0.0,0.0
1.0540000000000007,-0.036326399999960984,-0.7615300000003088,0.7426099999996754,0.45502600000012194,0.0,0.0
1.0560000000000007,-0.036249599999961066,-0.759920000000308,0.7410399999996761,0.45406400000012165,0.0,0.0
1.0580000000000007,-0.036172799999961154,-0.7583100000003073,0.7394699999996768,0.45310200000012135,0.0,0.0
1.0600000000000007,-0.03609599999996123,-0.7567000000003067,0.7378999999996774,0.4521400000001211,0.0,0.0
1.0620000000000007,-0.03601919999996132,-0.755090000000306,0.7363299999996782,0.45117800000012087,0.0,0.0
1.0640000000000007,-0.0359423999999614,-0.7534800000003053,0.7347599999996788,0.4502160000001206,0.0,0.0
1.0660000000000007,-0.03586559999996149,-0.7518700000003048,0.7331899999996795,0.44925400000012033,0.0,0.0
1.0680000000000007,-0.03578879999996156,-0.7502600000003041,0.7316199999996803,0.44829200000012015,0.0,0.0
1.0700000000000007,-0.03571199999996164,-0.7486500000003035,0.7300499999996808,0.4473300000001198,0.0,0.0
1.0720000000000007,-0.035635199999961724,-0.7470400000003028,0.7284799999996815,0.44636800000011956,0.0,0.0
1.0740000000000007,-0.035558399999961805,-0.7454300000003022,0.7269099999996823,0.4454060000001193,0.0,0.0
1.0760000000000007,-0.035481599999961894,-0.7438200000003015,0.7253399999996829,0.444444000000119,0.0,0.0
1.0780000000000007,-0.035404799999961975,-0.7422100000003008,0.7237699999996836,0.4434820000001188,0.0,0.0
1.0800000000000007,-0.035327999999962056,-0.7406000000003002,0.7221999999996842,0.4425200000001186,0.0,0.0
1.0820000000000007,-0.03525119999996214,-0.7389900000002995,0.7206299999996849,0.4415580000001183,0.0,0.0
1.0840000000000007,-0.03517439999996222,-0.7373800000002988,0.7190599999996856,0.440596000000118,0.0,0.0
1.0860000000000007,-0.0350975999999623,-0.7357700000002982,0.7174899999996863,0.43963400000011776,0.0,0.0
1.0880000000000007,-0.03502079999996239,-0.7341600000002976,0.715919999999687,0.43867200000011747,0.0,0.0
1.0900000000000007,-0.03494399999996247,-0.7325500000002969,0.7143499999996876,0.4377100000001172,0.0,0.0
1.0920000000000007,-0.03486719999996255,-0.7309400000002962,0.7127799999996883,0.436748000000117,0.0,0.0
1.0940000000000007,-0.03479039999996263,-0.7293300000002956,0.711209999999689,0.4357860000001167,0.0,0.0
1.0960000000000008,-0.034713599999962715,-0.7277200000002949,0.7096399999996897,0.4348240000001165,0.0,0.0
1.0980000000000008,-0.034636799999962796,-0.7261100000002942,0.7080699999996904,0.4338620000001162,0.0,0.0
1.1000000000000008,-0.03455999999996288,-0.7245000000002936,0.7064999999996912,0.4329000000001159,0.0,0.0
1.1020000000000008,-0.03448319999996296,-0.7228900000002929,0.7049299999996917,0.4319380000001157,0.0,0.0
1.1040000000000008,-0.03440639999996304,-0.7212800000002922,0.7033599999996925,0.43097600000011543,0.0,0.0
1.1060000000000008,-0.03432959999996313,-0.7196700000002918,0.7017899999996933,0.43001400000011514,0.0,0.0
1.1080000000000008,-0.03425279999996321,-0.718060000000291,0.7002199999996939,0.42905200000011495,0.0,0.0
1.1100000000000008,-0.03417599999996329,-0.7164500000002904,0.6986499999996945,0.42809000000011466,0.0,0.0
1.1120000000000008,-0.03409919999996337,-0.7148400000002898,0.6970799999996952,0.42712800000011436,0.0,0.0
1.1140000000000008,-0.034022399999963454,-0.713230000000289,0.6955099999996959,0.4261660000001141,0.0,0.0
1.1160000000000008,-0.033945599999963535,-0.7116200000002884,0.6939399999996966,0.4252040000001139,0.0,0.0
1.1180000000000008,-0.03386879999996362,-0.7100100000002878,0.6923699999996973,0.4242420000001136,0.0,0.0
1.1200000000000008,-0.033791999999963705,-0.708400000000287,0.6907999999996979,0.42328000000011334,0.0,0.0
1.1220000000000008,-0.03371519999996379,-0.7067900000002864,0.6892299999996986,0.42231800000011316,0.0,0.0
1.1240000000000008,-0.03363839999996387,-0.7051800000002858,0.6876599999996993,0.4213560000001128,0.0,0.0
1.1260000000000008,-0.03356159999996395,-0.7035700000002851,0.6860899999997,0.42039400000011257,0.0,0.0
1.1280000000000008,-0.03348479999996403,-0.7019600000002845,0.6845199999997007,0.4194320000001123,0.0,0.0
1.1300000000000008,-0.03340799999996411,-0.7003500000002838,0.6829499999997013,0.41847000000011203,0.0,0.0
1.1320000000000008,-0.033331199999964194,-0.6987400000002831,0.6813799999997021,0.4175080000001118,0.0,0.0
1.1340000000000008,-0.03325439999996428,-0.6971300000002825,0.6798099999997027,0.4165460000001115,0.0,0.0
1.1360000000000008,-0.03317759999996436,-0.6955200000002818,0.6782399999997034,0.4155840000001113,0.0,0.0
1.1380000000000008,-0.033100799999964445,-0.6939100000002811,0.6766699999997042,0.414622000000111,0.0,0.0
1.1400000000000008,-0.033023999999964526,-0.6923000000002805,0.6750999999997047,0.4136600000001107,0.0,0.0
1.1420000000000008,-0.03294719999996461,-0.6906900000002798,0.6735299999997054,0.4126980000001105,0.0,0.0
1.1440000000000008,-0.03287039999996469,-0.6890800000002791,0.6719599999997062,0.41173600000011024,0.0,0.0
1.1460000000000008,-0.03279359999996477,-0.6874700000002786,0.6703899999997068,0.41077400000010994,0.0,0.0
1.1480000000000008,-0.03271679999996486,-0.6858600000002779,0.6688199999997075,0.40981200000010976,0.0,0.0
1.1500000000000008,-0.03263999999996494,-0.6842500000002774,0.6672499999997081,0.40885000000010946,0.0,0.0
1.1520000000000008,-0.03256319999996502,-0.6826400000002766,0.6656799999997088,0.40788800000010916,0.0,0.0
1.1540000000000008,-0.0324863999999651,-0.6810300000002759,0.6641099999997095,0.4069260000001089,0.0,0.0
1.1560000000000008,-0.032409599999965184,-0.6794200000002754,0.6625399999997102,0.4059640000001087,0.0,0.0
1.1580000000000008,-0.032332799999965266,-0.6778100000002746,0.660969999999711,0.4050020000001084,0.0,0.0
1.1600000000000008,-0.03225599999996535,-0.6762000000002739,0.6593999999997116,0.40404000000010815,0.0,0.0
1.1620000000000008,-0.032179199999965435,-0.6745900000002734,0.6578299999997123,0.40307800000010796,0.0,0.0
1.1640000000000008,-0.03210239999996552,-0.6729800000002726,0.656259999999713,0.40211600000010767,0.0,0.0
1.1660000000000008,-0.0320255999999656,-0.671370000000272,0.6546899999997137,0.40115400000010737,0.0,0.0
1.1680000000000008,-0.03194879999996568,-0.6697600000002714,0.6531199999997144,0.40019200000010713,0.0,0.0
1.1700000000000008,-0.03187199999996576,-0.6681500000002707,0.6515499999997151,0.39923000000010683,0.0,0.0
1.1720000000000008,-0.03179519999996584,-0.66654000000027,0.6499799999997157,0.3982680000001066,0.0,0.0
1.1740000000000008,-0.031718399999965924,-0.6649300000002694,0.6484099999997164,0.39730600000010635,0.0,0.0
1.1760000000000008,-0.031641599999966005,-0.6633200000002687,0.6468399999997172,0.3963440000001061,0.0,0.0
1.1780000000000008,-0.031564799999966094,-0.661710000000268,0.6452699999997178,0.3953820000001058,0.0,0.0
1.1800000000000008,-0.031487999999966175,-0.6601000000002674,0.6436999999997184,0.3944200000001056,0.0,0.0
1.1820000000000008,-0.031411199999966256,-0.6584900000002667,0.6421299999997191,0.3934580000001053,0.0,0.0
1.1840000000000008,-0.03133439999996634,-0.656880000000266,0.6405599999997198,0.39249600000010504,0.0,0.0
1.1860000000000008,-0.03125759999996642,-0.6552700000002655,0.6389899999997205,0.3915340000001048,0.0,0.0
1.1880000000000008,-0.031180799999966504,-0.6536600000002649,0.6374199999997212,0.3905720000001045,0.0,0.0
1.1900000000000008,-0.031103999999966585,-0.6520500000002641,0.6358499999997218,0.3896100000001043,0.0,0.0
1.1920000000000008,-0.031027199999966667,-0.6504400000002635,0.6342799999997225,0.388648000000104,0.0,0.0
1.1940000000000008,-0.030950399999966748,-0.6488300000002629,0.6327099999997232,0.3876860000001037,0.0,0.0
1.1960000000000008,-0.030873599999966833,-0.6472200000002621,0.6311399999997239,0.3867240000001035,0.0,0.0
1.1980000000000008,-0.030796799999966915,-0.6456100000002615,0.6295699999997246,0.38576200000010324,0.0,0.0
1.2000000000000008,-0.030719999999966996,-0.6440000000002608,0.6279999999997252,0.38480000000010295,0.0,0.0
1.2020000000000008,-0.03064319999996708,-0.6423900000002601,0.626429999999726,0.38383800000010276,0.0,0.0
1.2040000000000008,-0.030566399999967162,-0.6407800000002595,0.6248599999997266,0.38287600000010247,0.0,0.0
1.2060000000000008,-0.030489599999967247,-0.6391700000002589,0.6232899999997273,0.38191400000010217,0.0,0.0
1.2080000000000009,-0.030412799999967325,-0.6375600000002583,0.6217199999997282,0.38095200000010193,0.0,0.0
1.2100000000000009,-0.030335999999967413,-0.6359500000002576,0.6201499999997286,0.3799900000001017,0.0,0.0
1.2120000000000009,-0.03025919999996749,-0.6343400000002569,0.6185799999997293,0.3790280000001014,0.0,0.0
1.2140000000000009,-0.030182399999967576,-0.6327300000002563,0.6170099999997302,0.37806600000010115,0.0,0.0
1.2160000000000009,-0.030105599999967654,-0.6311200000002556,0.6154399999997308,0.37710400000010097,0.0,0.0
1.2180000000000009,-0.03002879999996774,-0.6295100000002549,0.6138699999997315,0.3761420000001006,0.0,0.0
1.2200000000000009,-0.02995199999996782,-0.6279000000002544,0.6122999999997321,0.3751800000001004,0.0,0.0
1.2220000000000009,-0.029875199999967902,-0.6262900000002536,0.6107299999997328,0.37421800000010014,0.0,0.0
1.2240000000000009,-0.029798399999967987,-0.6246800000002529,0.6091599999997335,0.37325600000009984,0.0,0.0
1.2260000000000009,-0.029721599999968068,-0.6230700000002525,0.6075899999997342,0.3722940000000996,0.0,0.0
1.2280000000000009,-0.02964479999996815,-0.6214600000002517,0.6060199999997349,0.37133200000009936,0.0,0.0
1.2300000000000009,-0.02956799999996823,-0.619850000000251,0.6044499999997355,0.3703700000000991,0.0,0.0
1.2320000000000009,-0.029491199999968316,-0.6182400000002504,0.6028799999997362,0.3694080000000988,0.0,0.0
1.2340000000000009,-0.029414399999968397,-0.6166300000002497,0.6013099999997369,0.3684460000000986,0.0,0.0
1.2360000000000009,-0.02933759999996848,-0.615020000000249,0.5997399999997376,0.3674840000000983,0.0,0.0
1.2380000000000009,-0.029260799999968563,-0.6134100000002484,0.5981699999997383,0.36652200000009805,0.0,0.0
1.2400000000000009,-0.029183999999968648,-0.6118000000002477,0.596599999999739,0.3655600000000978,0.0,0.0
1.2420000000000009,-0.029107199999968726,-0.610190000000247,0.5950299999997396,0.3645980000000975,0.0,0.0
1.2440000000000009,-0.02903039999996881,-0.6085800000002465,0.5934599999997403,0.3636360000000973,0.0,0.0
1.2460000000000009,-0.028953599999968892,-0.6069700000002458,0.5918899999997411,0.362674000000097,0.0,0.0
1.2480000000000009,-0.028876799999968974,-0.6053600000002451,0.5903199999997417,0.36171200000009673,0.0,0.0
1.2500000000000009,-0.028799999999969055,-0.6037500000002445,0.5887499999997423,0.3607500000000965,0.0,0.0
1.252000000000001,-0.028723199999969137,-0.6021400000002439,0.587179999999743,0.3597880000000962,0.0,0.0
1.254000000000001,-0.02864639999996922,-0.6005300000002431,0.5856099999997437,0.35882600000009596,0.0,0.0
1.256000000000001,-0.028569599999969303,-0.5989200000002425,0.5840399999997444,0.35786400000009577,0.0,0.0
1.258000000000001,-0.028492799999969384,-0.5973100000002419,0.5824699999997451,0.3569020000000955,0.0,0.0
1.260000000000001,-0.02841599999996947,-0.5957000000002411,0.5808999999997457,0.3559400000000952,0.0,0.0
1.262000000000001,-0.02833919999996955,-0.5940900000002405,0.5793299999997464,0.35497800000009494,0.0,0.0
1.264000000000001,-0.028262399999969632,-0.5924800000002399,0.5777599999997471,0.35401600000009464,0.0,0.0
1.266000000000001,-0.028185599999969713,-0.5908700000002393,0.5761899999997478,0.3530540000000944,0.0,0.0
1.268000000000001,-0.028108799999969798,-0.5892600000002386,0.5746199999997486,0.35209200000009416,0.0,0.0
1.270000000000001,-0.028031999999969883,-0.5876500000002379,0.5730499999997491,0.3511300000000939,0.0,0.0
1.272000000000001,-0.02795519999996996,-0.5860400000002373,0.57147999999975,0.3501680000000936,0.0,0.0
1.274000000000001,-0.027878399999970046,-0.5844300000002366,0.5699099999997506,0.3492060000000934,0.0,0.0
1.276000000000001,-0.027801599999970127,-0.5828200000002359,0.5683399999997513,0.3482440000000931,0.0,0.0
1.278000000000001,-0.02772479999997021,-0.5812100000002353,0.5667699999997521,0.34728200000009285,0.0,0.0
1.280000000000001,-0.02764799999997029,-0.5796000000002346,0.5651999999997526,0.3463200000000926,0.0,0.0
1.282000000000001,-0.027571199999970375,-0.5779900000002339,0.5636299999997533,0.3453580000000923,0.0,0.0
1.284000000000001,-0.027494399999970456,-0.5763800000002335,0.562059999999754,0.34439600000009213,0.0,0.0
1.286000000000001,-0.027417599999970538,-0.5747700000002327,0.5604899999997547,0.34343400000009183,0.0,0.0
1.288000000000001,-0.02734079999997062,-0.573160000000232,0.5589199999997554,0.34247200000009154,0.0,0.0
1.290000000000001,-0.027263999999970704,-0.5715500000002315,0.557349999999756,0.3415100000000913,0.0,0.0
1.292000000000001,-0.027187199999970785,-0.5699400000002307,0.5557799999997567,0.34054800000009106,0.0,0.0
1.294000000000001,-0.027110399999970867,-0.56833000000023,0.5542099999997574,0.33958600000009076,0.0,0.0
1.296000000000001,-0.027033599999970955,-0.5667200000002295,0.5526399999997581,0.3386240000000905,0.0,0.0
1.298000000000001,-0.026956799999971033,-0.5651100000002287,0.5510699999997588,0.3376620000000903,0.0,0.0
1.300000000000001,-0.026879999999971118,-0.563500000000228,0.5494999999997595,0.33670000000009,0.0,0.0
1.302000000000001,-0.026803199999971196,-0.5618900000002275,0.5479299999997601,0.33573800000008974,0.0,0.0
1.304000000000001,-0.02672639999997128,-0.5602800000002268,0.5463599999997608,0.3347760000000895,0.0,0.0
1.306000000000001,-0.026649599999971362,-0.5586700000002262,0.5447899999997615,0.3338140000000892,0.0,0.0
1.308000000000001,-0.026572799999971444,-0.5570600000002255,0.5432199999997622,0.33285200000008897,0.0,0.0
1.310000000000001,-0.026495999999971525,-0.5554500000002248,0.5416499999997629,0.3318900000000888,0.0,0.0
1.312000000000001,-0.02641919999997161,-0.5538400000002242,0.5400799999997635,0.3309280000000885,0.0,0.0
1.314000000000001,-0.02634239999997169,-0.5522300000002235,0.5385099999997642,0.3299660000000882,0.0,0.0
1.316000000000001,-0.026265599999971773,-0.5506200000002228,0.5369399999997649,0.32900400000008795,0.0,0.0
1.318000000000001,-0.026188799999971858,-0.5490100000002222,0.5353699999997656,0.32804200000008765,0.0,0.0
1.320000000000001,-0.02611199999997194,-0.5474000000002215,0.5337999999997664,0.3270800000000874,0.0,0.0
1.322000000000001,-0.02603519999997202,-0.5457900000002208,0.532229999999767,0.32611800000008717,0.0,0.0
1.324000000000001,-0.0259583999999721,-0.5441800000002203,0.5306599999997677,0.32515600000008693,0.0,0.0
1.326000000000001,-0.02588159999997219,-0.5425700000002196,0.5290899999997684,0.32419400000008664,0.0,0.0
1.328000000000001,-0.025804799999972268,-0.5409600000002189,0.5275199999997691,0.3232320000000864,0.0,0.0
1.330000000000001,-0.025727999999972353,-0.5393500000002183,0.5259499999997698,0.3222700000000861,0.0,0.0
1.332000000000001,-0.02565119999997243,-0.5377400000002176,0.5243799999997704,0.32130800000008586,0.0,0.0
1.334000000000001,-0.025574399999972516,-0.5361300000002169,0.5228099999997711,0.3203460000000856,0.0,0.0
1.336000000000001,-0.025497599999972597,-0.5345200000002163,0.5212399999997718,0.3193840000000853,0.0,0.0
1.338000000000001,-0.02542079999997268,-0.5329100000002156,0.5196699999997725,0.31842200000008514,0.0,0.0
1.340000000000001,-0.025343999999972763,-0.5313000000002149,0.5180999999997732,0.31746000000008484,0.0,0.0
1.342000000000001,-0.025267199999972845,-0.5296900000002143,0.5165299999997738,0.31649800000008455,0.0,0.0
1.344000000000001,-0.025190399999972926,-0.5280800000002137,0.5149599999997745,0.3155360000000843,0.0,0.0
1.346000000000001,-0.025113599999973008,-0.526470000000213,0.5133899999997752,0.31457400000008406,0.0,0.0
1.348000000000001,-0.025036799999973092,-0.5248600000002124,0.5118199999997759,0.31361200000008377,0.0,0.0
1.350000000000001,-0.024959999999973174,-0.5232500000002117,0.5102499999997766,0.3126500000000836,0.0,0.0
1.352000000000001,-0.024883199999973255,-0.521640000000211,0.5086799999997772,0.3116880000000833,0.0,0.0
1.354000000000001,-0.02480639999997334,-0.5200300000002104,0.5071099999997779,0.310726000000083,0.0,0.0
1.356000000000001,-0.024729599999973425,-0.5184200000002097,0.5055399999997786,0.30976400000008275,0.0,0.0
1.358000000000001,-0.024652799999973503,-0.516810000000209,0.5039699999997793,0.30880200000008245,0.0,0.0
1.360000000000001,-0.024575999999973588,-0.5152000000002084,0.50239999999978,0.3078400000000822,0.0,0.0
1.362000000000001,-0.02449919999997367,-0.5135900000002077,0.5008299999997806,0.306878000000082,0.0,0.0
1.364000000000001,-0.024422399999973754,-0.5119800000002072,0.4992599999997813,0.3059160000000817,0.0,0.0
1.366000000000001,-0.024345599999973832,-0.5103700000002065,0.49768999999978203,0.30495400000008144,0.0,0.0
1.368000000000001,-0.024268799999973913,-0.5087600000002058,0.49611999999978273,0.3039920000000812,0.0,0.0
1.370000000000001,-0.024191999999973998,-0.5071500000002052,0.4945499999997834,0.3030300000000809,0.0,0.0
1.372000000000001,-0.02411519999997408,-0.5055400000002045,0.49297999999978415,0.30206800000008066,0.0,0.0
1.374000000000001,-0.02403839999997416,-0.5039300000002038,0.49140999999978474,0.3011060000000804,0.0,0.0
1.376000000000001,-0.023961599999974246,-0.5023200000002032,0.48983999999978545,0.3001440000000801,0.0,0.0
1.378000000000001,-0.023884799999974327,-0.5007100000002025,0.4882699999997862,0.29918200000007994,0.0,0.0
1.380000000000001,-0.02380799999997441,-0.4991000000002019,0.4866999999997868,0.29822000000007964,0.0,0.0
1.382000000000001,-0.02373119999997449,-0.4974900000002012,0.4851299999997875,0.29725800000007935,0.0,0.0
1.384000000000001,-0.023654399999974575,-0.49588000000020055,0.48355999999978816,0.2962960000000791,0.0,0.0
1.386000000000001,-0.02357759999997466,-0.4942700000001999,0.48198999999978887,0.29533400000007887,0.0,0.0
1.388000000000001,-0.023500799999974738,-0.49266000000019927,0.4804199999997896,0.29437200000007857,0.0,0.0
1.390000000000001,-0.023423999999974826,-0.49105000000019866,0.4788499999997902,0.29341000000007833,0.0,0.0
1.392000000000001,-0.023347199999974904,-0.48944000000019794,0.4772799999997909,0.29244800000007815,0.0,0.0
1.394000000000001,-0.02327039999997499,-0.4878300000001973,0.4757099999997916,0.2914860000000778,0.0,0.0
1.396000000000001,-0.023193599999975067,-0.48622000000019666,0.4741399999997923,0.29052400000007755,0.0,0.0
1.398000000000001,-0.02311679999997515,-0.484610000000196,0.472569999999793,0.2895620000000773,0.0,0.0
1.400000000000001,-0.023039999999975233,-0.48300000000019533,0.47099999999979364,0.288600000000077,0.0,0.0
1.402000000000001,-0.022963199999975314,-0.48139000000019466,0.46942999999979435,0.2876380000000768,0.0,0.0
1.404000000000001,-0.022886399999975396,-0.479780000000194,0.46785999999979505,0.2866760000000766,0.0,0.0
1.406000000000001,-0.02280959999997548,-0.47817000000019333,0.4662899999997957,0.2857140000000763,0.0,0.0
1.408000000000001,-0.022732799999975562,-0.4765600000001927,0.4647199999997964,0.284752000000076,0.0,0.0
1.410000000000001,-0.022655999999975644,-0.47495000000019205,0.46314999999979706,0.28379000000007576,0.0,0.0
1.412000000000001,-0.02257919999997573,-0.47334000000019144,0.46157999999979776,0.28282800000007546,0.0,0.0
1.414000000000001,-0.02250239999997581,-0.4717300000001907,0.4600099999997984,0.2818660000000752,0.0,0.0
1.416000000000001,-0.022425599999975895,-0.47012000000019005,0.4584399999997991,0.280904000000075,0.0,0.0
1.418000000000001,-0.022348799999975973,-0.46851000000018944,0.4568699999997998,0.2799420000000747,0.0,0.0
1.420000000000001,-0.02227199999997606,-0.4669000000001888,0.45529999999980053,0.27898000000007445,0.0,0.0
1.422000000000001,-0.02219519999997614,-0.4652900000001881,0.4537299999998012,0.2780180000000742,0.0,0.0
1.424000000000001,-0.022118399999976224,-0.46368000000018744,0.45215999999980183,0.2770560000000739,0.0,0.0
1.426000000000001,-0.0220415999999763,-0.4620700000001868,0.4505899999998026,0.27609400000007367,0.0,0.0
1.428000000000001,-0.021964799999976387,-0.4604600000001862,0.44901999999980324,0.27513200000007343,0.0,0.0
1.430000000000001,-0.021887999999976468,-0.4588500000001855,0.4474499999998039,0.27417000000007313,0.0,0.0
1.432000000000001,-0.02181119999997655,-0.45724000000018483,0.4458799999998046,0.2732080000000729,0.0,0.0
1.434000000000001,-0.021734399999976634,-0.45563000000018417,0.44430999999980525,0.27224600000007265,0.0,0.0
1.436000000000001,-0.021657599999976716,-0.4540200000001835,0.442739999999806,0.27128400000007236,0.0,0.0
1.438000000000001,-0.021580799999976797,-0.45241000000018294,0.44116999999980666,0.2703220000000721,0.0,0.0
1.440000000000001,-0.02150399999997688,-0.4508000000001822,0.4395999999998073,0.2693600000000719,0.0,0.0
1.442000000000001,-0.021427199999976963,-0.44919000000018156,0.4380299999998081,0.2683980000000716,0.0,0.0
1.444000000000001,-0.021350399999977045,-0.44758000000018094,0.43645999999980867,0.26743600000007134,0.0,0.0
1.446000000000001,-0.021273599999977126,-0.4459700000001802,0.4348899999998094,0.2664740000000711,0.0,0.0
1.448000000000001,-0.02119679999997721,-0.4443600000001796,0.4333199999998101,0.2655120000000708,0.0,0.0
1.450000000000001,-0.021119999999977296,-0.44275000000017894,0.43174999999981073,0.26455000000007056,0.0,0.0
1.452000000000001,-0.021043199999977374,-0.4411400000001783,0.43017999999981144,0.2635880000000703,0.0,0.0
1.454000000000001,-0.02096639999997746,-0.4395300000001776,0.4286099999998121,0.26262600000007,0.0,0.0
1.456000000000001,-0.02088959999997754,-0.43792000000017695,0.4270399999998128,0.2616640000000698,0.0,0.0
1.458000000000001,-0.02081279999997762,-0.43631000000017633,0.42546999999981355,0.26070200000006954,0.0,0.0
1.460000000000001,-0.020735999999977703,-0.4347000000001757,0.42389999999981415,0.25974000000006925,0.0,0.0
1.462000000000001,-0.020659199999977784,-0.433090000000175,0.42232999999981485,0.258778000000069,0.0,0.0
1.464000000000001,-0.02058239999997787,-0.43148000000017434,0.4207599999998155,0.2578160000000687,0.0,0.0
1.466000000000001,-0.02050559999997795,-0.4298700000001737,0.4191899999998162,0.25685400000006847,0.0,0.0
1.468000000000001,-0.020428799999978032,-0.42826000000017306,0.4176199999998169,0.25589200000006823,0.0,0.0
1.470000000000001,-0.020351999999978117,-0.4266500000001724,0.41604999999981757,0.25493000000006794,0.0,0.0
1.472000000000001,-0.020275199999978198,-0.4250400000001717,0.41447999999981827,0.2539680000000677,0.0,0.0
1.474000000000001,-0.02019839999997828,-0.42343000000017106,0.412909999999819,0.25300600000006745,0.0,0.0
1.476000000000001,-0.02012159999997836,-0.4218200000001704,0.4113399999998196,0.25204400000006716,0.0,0.0
1.478000000000001,-0.020044799999978446,-0.4202100000001698,0.40976999999982033,0.2510820000000669,0.0,0.0
1.480000000000001,-0.01996799999997853,-0.4186000000001691,0.408199999999821,0.2501200000000667,0.0,0.0
1.482000000000001,-0.01989119999997861,-0.4169900000001685,0.4066299999998217,0.2491580000000664,0.0,0.0
1.484000000000001,-0.019814399999978694,-0.4153800000001678,0.40505999999982234,0.24819600000006614,0.0,0.0
1.486000000000001,-0.019737599999978775,-0.4137700000001671,0.40348999999982305,0.2472340000000659,0.0,0.0
1.488000000000001,-0.019660799999978856,-0.4121600000001665,0.40191999999982375,0.24627200000006563,0.0,0.0
1.490000000000001,-0.019583999999978938,-0.41055000000016584,0.40034999999982446,0.2453100000000654,0.0,0.0
1.492000000000001,-0.019507199999979023,-0.40894000000016517,0.3987799999998251,0.2443480000000651,0.0,0.0
1.494000000000001,-0.019430399999979104,-0.4073300000001645,0.39720999999982576,0.24338600000006486,0.0,0.0
1.496000000000001,-0.019353599999979185,-0.40572000000016384,0.39563999999982646,0.24242400000006462,0.0,0.0
1.498000000000001,-0.019276799999979267,-0.4041100000001633,0.39406999999982717,0.24146200000006432,0.0,0.0
1.500000000000001,-0.01919999999997935,-0.40250000000016256,0.3924999999998278,0.24050000000006408,0.0,0.0
1.5020000000000011,-0.019123199999979433,-0.4008900000001619,0.3909299999998285,0.2395380000000638,0.0,0.0
1.5040000000000011,-0.019046399999979514,-0.39928000000016123,0.38935999999982923,0.23857600000006354,0.0,0.0
1.5060000000000011,-0.018969599999979603,-0.3976700000001606,0.38778999999982994,0.2376140000000633,0.0,0.0
1.5080000000000011,-0.01889279999997968,-0.39606000000015995,0.3862199999998306,0.23665200000006303,0.0,0.0
1.5100000000000011,-0.018815999999979766,-0.3944500000001593,0.38464999999983124,0.2356900000000628,0.0,0.0
1.5120000000000011,-0.018739199999979844,-0.3928400000001586,0.383079999999832,0.23472800000006253,0.0,0.0
1.5140000000000011,-0.01866239999997993,-0.391230000000158,0.38150999999983265,0.23376600000006226,0.0,0.0
1.5160000000000011,-0.01858559999998001,-0.38962000000015734,0.3799399999998333,0.232804000000062,0.0,0.0
1.5180000000000011,-0.01850879999998009,-0.3880100000001567,0.378369999999834,0.23184200000006175,0.0,0.0
1.5200000000000011,-0.018431999999980173,-0.386400000000156,0.37679999999983466,0.23088000000006148,0.0,0.0
1.5220000000000011,-0.018355199999980257,-0.38479000000015534,0.37522999999983536,0.2299180000000612,0.0,0.0
1.5240000000000011,-0.01827839999998034,-0.3831800000001547,0.37365999999983607,0.22895600000006097,0.0,0.0
1.5260000000000011,-0.01820159999998042,-0.38157000000015406,0.3720899999998367,0.2279940000000607,0.0,0.0
1.5280000000000011,-0.018124799999980505,-0.3799600000001534,0.3705199999998375,0.22703200000006044,0.0,0.0
1.5300000000000011,-0.018047999999980587,-0.3783500000001528,0.3689499999998381,0.22607000000006022,0.0,0.0
1.5320000000000011,-0.017971199999980668,-0.37674000000015206,0.3673799999998388,0.22510800000005993,0.0,0.0
1.5340000000000011,-0.01789439999998075,-0.3751300000001514,0.3658099999998395,0.22414600000005966,0.0,0.0
1.5360000000000011,-0.017817599999980838,-0.3735200000001508,0.36423999999984014,0.22318400000005945,0.0,0.0
1.5380000000000011,-0.017740799999980916,-0.3719100000001501,0.36266999999984084,0.22222200000005915,0.0,0.0
1.5400000000000011,-0.017663999999981,-0.37030000000014945,0.3610999999998415,0.22126000000005888,0.0,0.0
1.5420000000000011,-0.017587199999981082,-0.3686900000001488,0.3595299999998422,0.22029800000005864,0.0,0.0
1.5440000000000011,-0.017510399999981163,-0.3670800000001481,0.35795999999984296,0.21933600000005837,0.0,0.0
1.5460000000000012,-0.017433599999981245,-0.36547000000014757,0.35638999999984355,0.2183740000000581,0.0,0.0
1.5480000000000012,-0.017356799999981326,-0.36386000000014684,0.35481999999984426,0.21741200000005784,0.0,0.0
1.5500000000000012,-0.01727999999998141,-0.3622500000001462,0.3532499999998449,0.21645000000005762,0.0,0.0
1.5520000000000012,-0.017203199999981492,-0.36064000000014557,0.3516799999998456,0.21548800000005733,0.0,0.0
1.5540000000000012,-0.017126399999981574,-0.35903000000014484,0.3501099999998463,0.21452600000005706,0.0,0.0
1.5560000000000012,-0.017049599999981655,-0.35742000000014423,0.34853999999984697,0.21356400000005682,0.0,0.0
1.5580000000000012,-0.01697279999998174,-0.35581000000014357,0.3469699999998477,0.21260200000005655,0.0,0.0
1.5600000000000012,-0.01689599999998182,-0.3542000000001429,0.3453999999998484,0.21164000000005628,0.0,0.0
1.5620000000000012,-0.016819199999981903,-0.35259000000014223,0.34382999999984903,0.21067800000005604,0.0,0.0
1.5640000000000012,-0.016742399999981988,-0.35098000000014157,0.34225999999984974,0.2097160000000558,0.0,0.0
1.5660000000000012,-0.01666559999998207,-0.34937000000014096,0.3406899999998504,0.2087540000000555,0.0,0.0
1.5680000000000012,-0.01658879999998215,-0.34776000000014035,0.3391199999998511,0.20779200000005527,0.0,0.0
1.5700000000000012,-0.016511999999982232,-0.3461500000001396,0.33754999999985175,0.20683000000005503,0.0,0.0
1.5720000000000012,-0.016435199999982317,-0.34454000000013896,0.33597999999985245,0.20586800000005473,0.0,0.0
1.5740000000000012,-0.016358399999982398,-0.34293000000013835,0.33440999999985316,0.2049060000000545,0.0,0.0
1.5760000000000012,-0.01628159999998248,-0.3413200000001377,0.33283999999985386,0.20394400000005422,0.0,0.0
1.5780000000000012,-0.01620479999998256,-0.339710000000137,0.3312699999998545,0.20298200000005395,0.0,0.0
1.5800000000000012,-0.016127999999982646,-0.33810000000013635,0.32969999999985516,0.2020200000000537,0.0,0.0
1.5820000000000012,-0.016051199999982727,-0.3364900000001357,0.3281299999998559,0.20105800000005344,0.0,0.0
1.5840000000000012,-0.01597439999998281,-0.334880000000135,0.3265599999998566,0.2000960000000532,0.0,0.0
1.5860000000000012,-0.015897599999982893,-0.3332700000001344,0.3249899999998572,0.19913400000005294,0.0,0.0
1.5880000000000012,-0.015820799999982975,-0.33166000000013374,0.32341999999985793,0.19817200000005267,0.0,0.0
1.5900000000000012,-0.015743999999983056,-0.33005000000013307,0.3218499999998586,0.1972100000000524,0.0,0.0
1.5920000000000012,-0.015667199999983138,-0.3284400000001324,0.32027999999985934,0.19624800000005216,0.0,0.0
1.5940000000000012,-0.01559039999998322,-0.32683000000013174,0.31870999999986,0.1952860000000519,0.0,0.0
1.5960000000000012,-0.015513599999983304,-0.3252200000001311,0.31713999999986064,0.19432400000005162,0.0,0.0
1.5980000000000012,-0.015436799999983387,-0.32361000000013046,0.3155699999998614,0.19336200000005138,0.0,0.0
1.6000000000000012,-0.015359999999983468,-0.32200000000012985,0.313999999999862,0.1924000000000511,0.0,0.0
1.6020000000000012,-0.015283199999983552,-0.3203900000001291,0.3124299999998627,0.19143800000005085,0.0,0.0
1.6040000000000012,-0.015206399999983633,-0.31878000000012846,0.3108599999998634,0.1904760000000506,0.0,0.0
1.6060000000000012,-0.015129599999983716,-0.31717000000012785,0.30928999999986406,0.18951400000005034,0.0,0.0
1.6080000000000012,-0.015052799999983798,-0.3155600000001272,0.30771999999986477,0.18855200000005007,0.0,0.0
1.6100000000000012,-0.01497599999998388,-0.3139500000001265,0.3061499999998654,0.1875900000000498,0.0,0.0
1.6120000000000012,-0.014899199999983962,-0.31234000000012585,0.3045799999998661,0.18662800000004956,0.0,0.0
1.6140000000000012,-0.014822399999984047,-0.3107300000001252,0.3030099999998669,0.1856660000000493,0.0,0.0
1.6160000000000012,-0.014745599999984128,-0.30912000000012463,0.3014399999998675,0.18470400000004902,0.0,0.0
1.6180000000000012,-0.01466879999998421,-0.3075100000001239,0.2998699999998682,0.18374200000004878,0.0,0.0
1.6200000000000012,-0.014591999999984293,-0.30590000000012324,0.29829999999986884,0.18278000000004851,0.0,0.0
1.6220000000000012,-0.014515199999984374,-0.30429000000012263,0.29672999999986954,0.18181800000004825,0.0,0.0
1.6240000000000012,-0.014438399999984457,-0.3026800000001219,0.29515999999987025,0.18085600000004803,0.0,0.0
1.6260000000000012,-0.014361599999984539,-0.3010700000001213,0.2935899999998709,0.17989400000004774,0.0,0.0
1.6280000000000012,-0.014284799999984622,-0.29946000000012063,0.2920199999998716,0.17893200000004747,0.0,0.0
1.6300000000000012,-0.014207999999984703,-0.29785000000011996,0.2904499999998723,0.17797000000004723,0.0,0.0
1.6320000000000012,-0.014131199999984786,-0.2962400000001193,0.28887999999987296,0.17700800000004696,0.0,0.0
1.6340000000000012,-0.014054399999984868,-0.29463000000011863,0.28730999999987367,0.1760460000000467,0.0,0.0
1.6360000000000012,-0.013977599999984951,-0.293020000000118,0.2857399999998743,0.17508400000004645,0.0,0.0
1.6380000000000012,-0.013900799999985034,-0.2914100000001174,0.284169999999875,0.1741220000000462,0.0,0.0
1.6400000000000012,-0.013823999999985116,-0.2898000000001167,0.28259999999987573,0.17316000000004592,0.0,0.0
1.6420000000000012,-0.0137471999999852,-0.288190000000116,0.2810299999998764,0.17219800000004568,0.0,0.0
1.6440000000000012,-0.013670399999985282,-0.2865800000001154,0.2794599999998771,0.1712360000000454,0.0,0.0
1.6460000000000012,-0.013593599999985365,-0.28497000000011474,0.27788999999987773,0.17027400000004514,0.0,0.0
1.6480000000000012,-0.013516799999985445,-0.2833600000001141,0.27631999999987844,0.1693120000000449,0.0,0.0
1.6500000000000012,-0.013439999999985528,-0.2817500000001134,0.27474999999987915,0.16835000000004463,0.0,0.0
1.6520000000000012,-0.01336319999998561,-0.28014000000011274,0.2731799999998798,0.16738800000004436,0.0,0.0
1.6540000000000012,-0.013286399999985692,-0.2785300000001121,0.2716099999998805,0.1664260000000441,0.0,0.0
1.6560000000000012,-0.013209599999985775,-0.27692000000011147,0.27003999999988115,0.16546400000004385,0.0,0.0
1.6580000000000013,-0.013132799999985857,-0.2753100000001108,0.26846999999988186,0.1645020000000436,0.0,0.0
1.6600000000000013,-0.01305599999998594,-0.27370000000011013,0.26689999999988256,0.16354000000004332,0.0,0.0
1.6620000000000013,-0.012979199999986021,-0.27209000000010947,0.2653299999998832,0.16257800000004308,0.0,0.0
1.6640000000000013,-0.012902399999986104,-0.2704800000001088,0.2637599999998839,0.1616160000000428,0.0,0.0
1.6660000000000013,-0.012825599999986186,-0.2688700000001082,0.26218999999988457,0.16065400000004254,0.0,0.0
1.6680000000000013,-0.012748799999986269,-0.2672600000001075,0.2606199999998853,0.1596920000000423,0.0,0.0
1.6700000000000013,-0.01267199999998635,-0.26565000000010686,0.259049999999886,0.15873000000004203,0.0,0.0
1.6720000000000013,-0.012595199999986435,-0.2640400000001062,0.25747999999988663,0.1577680000000418,0.0,0.0
1.6740000000000013,-0.012518399999986518,-0.2624300000001055,0.25590999999988734,0.15680600000004152,0.0,0.0
1.6760000000000013,-0.0124415999999866,-0.2608200000001049,0.254339999999888,0.15584400000004126,0.0,0.0
1.6780000000000013,-0.012364799999986681,-0.25921000000010425,0.2527699999998887,0.154882000000041,0.0,0.0
1.6800000000000013,-0.012287999999986763,-0.2576000000001036,0.2511999999998894,0.15392000000004075,0.0,0.0
1.6820000000000013,-0.012211199999986846,-0.2559900000001029,0.24962999999989005,0.15295800000004048,0.0,0.0
1.6840000000000013,-0.012134399999986927,-0.2543800000001023,0.24805999999989076,0.1519960000000402,0.0,0.0
1.6860000000000013,-0.01205759999998701,-0.25277000000010164,0.24648999999989143,0.15103400000003997,0.0,0.0
1.6880000000000013,-0.011980799999987092,-0.25116000000010097,0.24491999999989214,0.1500720000000397,0.0,0.0
1.6900000000000013,-0.011903999999987175,-0.2495500000001003,0.2433499999998928,0.14911000000003943,0.0,0.0
1.6920000000000013,-0.011827199999987256,-0.24794000000009966,0.24177999999989347,0.14814800000003922,0.0,0.0
1.6940000000000013,-0.01175039999998734,-0.246330000000099,0.24020999999989417,0.14718600000003892,0.0,0.0
1.6960000000000013,-0.011673599999987423,-0.24472000000009836,0.23863999999989488,0.14622400000003866,0.0,0.0
1.6980000000000013,-0.011596799999987504,-0.2431100000000977,0.23706999999989553,0.14526200000003844,0.0,0.0
1.7000000000000013,-0.011519999999987587,-0.24150000000009703,0.2354999999998962,0.14430000000003815,0.0,0.0
1.7020000000000013,-0.011443199999987668,-0.2398900000000964,0.2339299999998969,0.14333800000003788,0.0,0.0
1.7040000000000013,-0.011366399999987753,-0.23828000000009575,0.23235999999989762,0.14237600000003764,0.0,0.0
1.7060000000000013,-0.011289599999987835,-0.23667000000009505,0.23078999999989827,0.14141400000003737,0.0,0.0
1.7080000000000013,-0.011212799999987916,-0.23506000000009442,0.22921999999989895,0.1404520000000371,0.0,0.0
1.7100000000000013,-0.011135999999987998,-0.23345000000009375,0.22764999999989963,0.13949000000003683,0.0,0.0
1.7120000000000013,-0.01105919999998808,-0.23184000000009314,0.22607999999990033,0.1385280000000366,0.0,0.0
1.7140000000000013,-0.010982399999988164,-0.23023000000009244,0.224509999999901,0.13756600000003633,0.0,0.0
1.7160000000000013,-0.010905599999988245,-0.22862000000009178,0.2229399999999017,0.13660400000003606,0.0,0.0
1.7180000000000013,-0.010828799999988328,-0.22701000000009114,0.22136999999990237,0.13564200000003582,0.0,0.0
1.7200000000000013,-0.01075199999998841,-0.22540000000009047,0.21979999999990307,0.13468000000003555,0.0,0.0
1.7220000000000013,-0.010675199999988493,-0.22379000000008983,0.21822999999990372,0.13371800000003528,0.0,0.0
1.7240000000000013,-0.010598399999988574,-0.22218000000008917,0.21665999999990443,0.13275600000003504,0.0,0.0
1.7260000000000013,-0.010521599999988657,-0.22057000000008853,0.2150899999999051,0.13179400000003477,0.0,0.0
1.7280000000000013,-0.010444799999988739,-0.21896000000008786,0.2135199999999058,0.1308320000000345,0.0,0.0
1.7300000000000013,-0.010367999999988822,-0.2173500000000872,0.21194999999990646,0.12987000000003426,0.0,0.0
1.7320000000000013,-0.010291199999988907,-0.21574000000008656,0.21037999999990714,0.128908000000034,0.0,0.0
1.7340000000000013,-0.010214399999988988,-0.21413000000008592,0.20880999999990785,0.12794600000003373,0.0,0.0
1.7360000000000013,-0.01013759999998907,-0.21252000000008525,0.20723999999990853,0.1269840000000335,0.0,0.0
1.7380000000000013,-0.010060799999989151,-0.21091000000008459,0.2056699999999092,0.12602200000003322,0.0,0.0
1.7400000000000013,-0.009983999999989234,-0.20930000000008392,0.20409999999990988,0.12506000000003295,0.0,0.0
1.7420000000000013,-0.009907199999989316,-0.2076900000000833,0.20252999999991056,0.1240980000000327,0.0,0.0
1.7440000000000013,-0.009830399999989399,-0.2060800000000826,0.20095999999991127,0.12313600000003246,0.0,0.0
1.7460000000000013,-0.00975359999998948,-0.20447000000008198,0.19938999999991194,0.12217400000003219,0.0,0.0
1.7480000000000013,-0.009676799999989563,-0.2028600000000813,0.19781999999991262,0.12121200000003192,0.0,0.0
1.7500000000000013,-0.009599999999989646,-0.20125000000008067,0.1962499999999133,0.12025000000003166,0.0,0.0
1.7520000000000013,-0.009523199999989728,-0.19964000000008,0.194679999999914,0.1192880000000314,0.0,0.0
1.7540000000000013,-0.00944639999998981,-0.19803000000007934,0.19310999999991468,0.11832600000003114,0.0,0.0
1.7560000000000013,-0.009369599999989892,-0.1964200000000787,0.19153999999991536,0.11736400000003089,0.0,0.0
1.7580000000000013,-0.009292799999989975,-0.19481000000007806,0.18996999999991604,0.11640200000003063,0.0,0.0
1.7600000000000013,-0.009215999999990057,-0.19320000000007737,0.18839999999991672,0.11544000000003037,0.0,0.0
1.7620000000000013,-0.009139199999990142,-0.19159000000007673,0.18682999999991742,0.11447800000003011,0.0,0.0
1.7640000000000013,-0.009062399999990223,-0.18998000000007606,0.1852599999999181,0.11351600000002984,0.0,0.0
1.7660000000000013,-0.008985599999990304,-0.18837000000007545,0.1836899999999188,0.11255400000002959,0.0,0.0
1.7680000000000013,-0.008908799999990386,-0.18676000000007476,0.18211999999991946,0.11159200000002933,0.0,0.0
1.7700000000000014,-0.008831999999990469,-0.1851500000000741,0.18054999999992014,0.11063000000002907,0.0,0.0
1.7720000000000014,-0.008755199999990552,-0.18354000000007345,0.17897999999992084,0.10966800000002881,0.0,0.0
1.7740000000000014,-0.008678399999990634,-0.18193000000007278,0.17740999999992155,0.10870600000002856,0.0,0.0
1.7760000000000014,-0.008601599999990717,-0.18032000000007214,0.1758399999999222,0.10774400000002829,0.0,0.0
1.7780000000000014,-0.008524799999990798,-0.17871000000007148,0.17426999999992288,0.10678200000002805,0.0,0.0
1.7800000000000014,-0.008447999999990881,-0.1771000000000708,0.17269999999992355,0.10582000000002777,0.0,0.0
1.7820000000000014,-0.008371199999990963,-0.17549000000007017,0.1711299999999243,0.10485800000002751,0.0,0.0
1.7840000000000014,-0.008294399999991046,-0.1738800000000695,0.16955999999992494,0.10389600000002726,0.0,0.0
1.7860000000000014,-0.008217599999991127,-0.17227000000006887,0.16798999999992562,0.10293400000002699,0.0,0.0
1.7880000000000014,-0.00814079999999121,-0.1706600000000682,0.1664199999999263,0.10197200000002675,0.0,0.0
1.7900000000000014,-0.008063999999991293,-0.16905000000006754,0.164849999999927,0.10101000000002648,0.0,0.0
1.7920000000000014,-0.007987199999991375,-0.1674400000000669,0.16327999999992768,0.10004800000002621,0.0,0.0
1.7940000000000014,-0.007910399999991458,-0.16583000000006623,0.16170999999992836,0.09908600000002596,0.0,0.0
1.7960000000000014,-0.00783359999999154,-0.1642200000000656,0.16013999999992903,0.0981240000000257,0.0,0.0
1.7980000000000014,-0.0077567999999916225,-0.16261000000006492,0.15856999999992974,0.09716200000002545,0.0,0.0
1.8000000000000014,-0.007679999999991706,-0.16100000000006426,0.1569999999999304,0.09620000000002518,0.0,0.0
1.8020000000000014,-0.007603199999991788,-0.15939000000006362,0.1554299999999311,0.09523800000002493,0.0,0.0
1.8040000000000014,-0.007526399999991869,-0.15778000000006298,0.15385999999993177,0.09427600000002466,0.0,0.0
1.8060000000000014,-0.0074495999999919515,-0.15617000000006231,0.15228999999993248,0.0933140000000244,0.0,0.0
1.8080000000000014,-0.007372799999992034,-0.15456000000006165,0.15071999999993313,0.09235200000002414,0.0,0.0
1.8100000000000014,-0.007295999999992116,-0.15295000000006098,0.1491499999999338,0.09139000000002388,0.0,0.0
1.8120000000000014,-0.007219199999992198,-0.15134000000006037,0.1475799999999345,0.09042800000002363,0.0,0.0
1.8140000000000014,-0.007142399999992281,-0.14973000000005968,0.1460099999999352,0.08946600000002336,0.0,0.0
1.8160000000000014,-0.007065599999992364,-0.14812000000005904,0.14443999999993587,0.0885040000000231,0.0,0.0
1.8180000000000014,-0.006988799999992446,-0.14651000000005837,0.14286999999993655,0.08754200000002287,0.0,0.0
1.8200000000000014,-0.006911999999992528,-0.14490000000005776,0.14129999999993725,0.08658000000002258,0.0,0.0
1.8220000000000014,-0.0068351999999926106,-0.14329000000005707,0.13972999999993793,0.08561800000002233,0.0,0.0
1.8240000000000014,-0.006758399999992693,-0.1416800000000564,0.1381599999999386,0.08465600000002207,0.0,0.0
1.8260000000000014,-0.006681599999992775,-0.14007000000005576,0.1365899999999393,0.0836940000000218,0.0,0.0
1.8280000000000014,-0.006604799999992857,-0.1384600000000551,0.13501999999993997,0.08273200000002155,0.0,0.0
1.8300000000000014,-0.00652799999999294,-0.13685000000005446,0.13344999999994067,0.0817700000000213,0.0,0.0
1.8320000000000014,-0.006451199999993023,-0.1352400000000538,0.13187999999994135,0.08080800000002104,0.0,0.0
1.8340000000000014,-0.006374399999993104,-0.13363000000005312,0.13030999999994203,0.07984600000002078,0.0,0.0
1.8360000000000014,-0.006297599999993187,-0.13202000000005248,0.1287399999999427,0.07888400000002051,0.0,0.0
1.8380000000000014,-0.0062207999999932696,-0.13041000000005182,0.12716999999994338,0.07792200000002025,0.0,0.0
1.8400000000000014,-0.006143999999993352,-0.12880000000005118,0.1255999999999441,0.07696000000002,0.0,0.0
1.8420000000000014,-0.006067199999993434,-0.1271900000000505,0.12402999999994477,0.07599800000001974,0.0,0.0
1.8440000000000014,-0.005990399999993516,-0.12558000000004985,0.12245999999994545,0.07503600000001948,0.0,0.0
1.8460000000000014,-0.0059135999999935995,-0.12397000000004921,0.12088999999994612,0.07407400000001922,0.0,0.0
1.8480000000000014,-0.005836799999993681,-0.12236000000004854,0.11931999999994682,0.07311200000001895,0.0,0.0
1.8500000000000014,-0.005759999999993763,-0.12075000000004789,0.1177499999999475,0.0721500000000187,0.0,0.0
1.8520000000000014,-0.005683199999993845,-0.11914000000004724,0.11617999999994819,0.07118800000001846,0.0,0.0
1.8540000000000014,-0.005606399999993928,-0.11753000000004658,0.11460999999994886,0.07022600000001818,0.0,0.0
1.8560000000000014,-0.005529599999994011,-0.11592000000004593,0.11303999999994954,0.06926400000001792,0.0,0.0
